;FLAVOR:Marlin
;TIME:1594
;Filament used: 1.0129m
;Layer height: 0.15
;MINX:161.9
;MINY:140.853
;MINZ:0.3
;MAXX:208.827
;MAXY:208.6
;MAXZ:4.95
;Generated with Cura_SteamEngine main
M140 S60
M105
M190 S60
M104 S200
M105
M109 S200
M82 ;absolute extrusion mode
M201 X500.00 Y500.00 Z100.00 E5000.00 ;Setup machine max acceleration
M203 X500.00 Y500.00 Z10.00 E50.00 ;Setup machine max feedrate
M204 P500.00 R1000.00 T500.00 ;Setup Print/Retract/Travel acceleration
M205 X8.00 Y8.00 Z0.40 E5.00 ;Setup Jerk
M220 S100 ;Reset Feedrate
M221 S100 ;Reset Flowrate

G28 ;Home
G29 ;Automatic Leveling

G92 E0 ;Reset Extruder
G1 Z2.0 F3000 ;Move Z Axis up
G1 X10.1 Y20 Z0.28 F5000.0 ;Move to start position
G1 X10.1 Y200.0 Z0.28 F1500.0 E15 ;Draw the first line
G1 X10.4 Y200.0 Z0.28 F5000.0 ;Move to side a little
G1 X10.4 Y20 Z0.28 F1500.0 E30 ;Draw the second line
G92 E0 ;Reset Extruder
G1 Z2.0 F3000 ;Move Z Axis up

G92 E0
G92 E0
G1 F3000 E-3
;LAYER_COUNT:32
;LAYER:0
M107
G0 F3600 X162.896 Y141.986 Z0.3
G0 X161.9 Y145.103
;TYPE:SKIRT
G1 F3000 E0
G1 F1500 X161.909 Y144.415 E0.03433
G1 X161.956 Y143.881 E0.06107
G1 X162.082 Y143.359 E0.08786
G1 X162.284 Y142.863 E0.11458
G1 X162.557 Y142.401 E0.14135
G1 X162.896 Y141.986 E0.16809
G1 X163.293 Y141.625 E0.19486
G1 X163.739 Y141.327 E0.22162
G1 X164.224 Y141.099 E0.24836
G1 X164.738 Y140.945 E0.27513
G1 X165.481 Y140.854 E0.31247
G1 X183.844 Y140.853 E1.22861
G1 X184.697 Y140.868 E1.27117
G1 X187.141 Y141.002 E1.39328
G1 X189.899 Y141.08 E1.53094
G1 X191.265 Y141.09 E1.59909
G1 X204.572 Y141.09 E2.26298
G1 X205.27 Y141.1 E2.2978
G1 X205.804 Y141.148 E2.32455
G1 X206.325 Y141.274 E2.35129
G1 X206.822 Y141.477 E2.37808
G1 X207.283 Y141.751 E2.40483
G1 X207.698 Y142.09 E2.43157
G1 X208.058 Y142.488 E2.45834
G1 X208.355 Y142.934 E2.48507
G1 X208.583 Y143.42 E2.51186
G1 X208.735 Y143.934 E2.5386
G1 X208.826 Y144.671 E2.57565
G1 X208.827 Y163.034 E3.49178
G1 X208.812 Y163.882 E3.53409
G1 X208.688 Y166.181 E3.64896
G1 X208.609 Y168.97 E3.78816
G1 X208.6 Y170.314 E3.85521
G1 X208.6 Y183.844 E4.53023
G1 X208.59 Y184.546 E4.56525
G1 X208.542 Y185.08 E4.592
G1 X208.416 Y185.602 E4.61879
G1 X208.213 Y186.098 E4.64553
G1 X207.939 Y186.559 E4.67229
G1 X207.6 Y186.975 E4.69906
G1 X207.173 Y187.358 E4.72768
G1 X206.226 Y188.08 E4.78709
G1 X204.08 Y189.766 E4.92324
G1 X201.985 Y191.51 E5.05924
G1 X199.94 Y193.312 E5.19522
G1 X197.948 Y195.17 E5.33112
G1 X196.009 Y197.084 E5.46705
G1 X194.125 Y199.052 E5.60297
G1 X192.299 Y201.071 E5.73879
G1 X190.516 Y203.159 E5.87577
G1 X188.802 Y205.284 E6.01197
G1 X187.376 Y207.157 E6.12942
G1 X186.957 Y207.615 E6.16039
G1 X186.54 Y207.952 E6.18714
G1 X186.077 Y208.223 E6.2139
G1 X185.58 Y208.423 E6.24063
G1 X185.058 Y208.546 E6.26738
G1 X184.498 Y208.599 E6.29545
G1 X166.161 Y208.6 E7.21028
G1 X165.463 Y208.591 E7.24511
G1 X164.928 Y208.544 E7.27191
G1 X164.407 Y208.418 E7.29865
G1 X163.91 Y208.216 E7.32541
G1 X163.449 Y207.943 E7.35214
G1 X163.033 Y207.604 E7.37891
G1 X162.672 Y207.208 E7.40565
G1 X162.374 Y206.762 E7.43241
G1 X162.146 Y206.276 E7.45919
G1 X161.993 Y205.762 E7.48595
G1 X161.901 Y205.015 E7.5235
G1 X161.9 Y166.235 E9.45824
G1 X161.907 Y164.055 E9.567
G1 X161.9 Y163.147 E9.6123
G1 X161.9 Y145.103 E10.51252
G0 F3600 X162.3 Y145.108
G1 F1500 X162.309 Y144.42 E10.54685
G1 X162.356 Y143.917 E10.57205
G1 X162.481 Y143.427 E10.59728
G1 X162.682 Y142.963 E10.62251
G1 X162.953 Y142.536 E10.64774
G1 X163.288 Y142.158 E10.67294
G1 X163.679 Y141.837 E10.69818
G1 X164.115 Y141.581 E10.7234
G1 X164.586 Y141.398 E10.74861
G1 X165.08 Y141.291 E10.77383
G1 X165.528 Y141.254 E10.79626
G1 X183.838 Y141.253 E11.70975
G1 X184.544 Y141.263 E11.74497
G1 X187.108 Y141.402 E11.87308
G1 X189.884 Y141.48 E12.01163
G1 X191.263 Y141.49 E12.08043
G1 X204.566 Y141.49 E12.74412
G1 X205.264 Y141.5 E12.77894
G1 X205.767 Y141.547 E12.80415
G1 X206.257 Y141.673 E12.82939
G1 X206.721 Y141.875 E12.85464
G1 X207.147 Y142.147 E12.87985
G1 X207.525 Y142.482 E12.90505
G1 X207.845 Y142.873 E12.93026
G1 X208.1 Y143.31 E12.9555
G1 X208.283 Y143.781 E12.98071
G1 X208.39 Y144.275 E13.00593
G1 X208.426 Y144.929 E13.03861
G1 X208.427 Y163.028 E13.94157
G1 X208.417 Y163.733 E13.97675
G1 X208.289 Y166.132 E14.0966
G1 X208.21 Y168.934 E14.23645
G1 X208.2 Y170.312 E14.3052
G1 X208.2 Y183.839 E14.98007
G1 X208.19 Y184.541 E15.01509
G1 X208.143 Y185.044 E15.0403
G1 X208.017 Y185.534 E15.06554
G1 X207.815 Y185.997 E15.09074
G1 X207.544 Y186.424 E15.11597
G1 X207.136 Y186.883 E15.14661
G1 X205.983 Y187.762 E15.21894
G1 X203.844 Y189.442 E15.35464
G1 X201.728 Y191.203 E15.49198
G1 X199.668 Y193.018 E15.62896
G1 X197.677 Y194.876 E15.76482
G1 X195.704 Y196.824 E15.90315
G1 X193.839 Y198.773 E16.03773
G1 X191.999 Y200.806 E16.17453
G1 X190.199 Y202.915 E16.31286
G1 X188.487 Y205.036 E16.44885
G1 X187.051 Y206.922 E16.56711
G1 X186.662 Y207.343 E16.59571
G1 X186.265 Y207.655 E16.6209
G1 X185.823 Y207.901 E16.64613
G1 X185.348 Y208.074 E16.67136
G1 X184.852 Y208.171 E16.69657
G1 X184.259 Y208.199 E16.72619
G1 X166.166 Y208.2 E17.62885
G1 X165.468 Y208.191 E17.66368
G1 X164.964 Y208.144 E17.68893
G1 X164.474 Y208.019 E17.71416
G1 X164.01 Y207.818 E17.73939
G1 X163.584 Y207.547 E17.76458
G1 X163.205 Y207.212 E17.78981
G1 X162.884 Y206.821 E17.81505
G1 X162.629 Y206.385 E17.84025
G1 X162.445 Y205.914 E17.86548
G1 X162.338 Y205.42 E17.8907
G1 X162.301 Y204.967 E17.91337
G1 X162.3 Y166.237 E19.84562
G1 X162.307 Y164.057 E19.95438
G1 X162.3 Y163.144 E19.99993
G1 X162.3 Y145.108 E20.89975
G1 F3000 E17.89975
;MESH:1x1-plate.stl(1)
G0 F3600 X164.835 Y145.108
G0 X165.92 Y145.108
G0 X173.4 Y145.928
G1 F3000 E20.89975
G0 F3600 X173.35 Y145.928
;TYPE:WALL-INNER
G1 F1333.3 X176.65 Y145.928 E21.08497
G1 X176.68 Y145.838 E21.09029
G1 F1385.7 X177.326 Y145.46 E21.13071
G1 X176.5 Y145.478 E21.17533
G1 F1333.3 X173.5 Y145.478 E21.34371
G1 F1373 X173 Y145.466 E21.37097
G1 F1456.3 X172.5 Y145.453 E21.39668
G1 F1411.8 X173.32 Y145.838 E21.4447
G1 F1333.3 X173.35 Y145.928 E21.45002
G0 F3600 X173.4 Y145.928
G0 X168.172 Y145.625
G0 X167.172 Y146.125
G0 X167.172 Y161.781
G0 X168.172 Y162.281
G0 X172.674 Y162.446
G1 F1385.7 X173.5 Y162.428 E21.49464
G1 F1333.3 X176.5 Y162.428 E21.66302
G1 F1373 X177 Y162.44 E21.69028
G1 F1456.3 X177.5 Y162.453 E21.71598
G1 F1411.8 X176.68 Y162.068 E21.764
G1 F1333.3 X176.65 Y161.978 E21.76933
G1 X173.35 Y161.978 E21.95454
G1 X173.32 Y162.068 E21.95987
G1 F1385.7 X172.674 Y162.446 E22.00029
G0 F3600 X169 Y162.453
G1 F1500 X168.2 Y162.053 E22.04491
G1 X168.166 Y161.953 E22.05018
G1 X168 Y161.953 E22.05846
G1 X167.292 Y161.661 E22.09667
G1 F1405.2 X166.975 Y161.114 E22.13034
G1 F1324.5 X166.975 Y159.344 E22.23035
G1 X166.975 Y157.574 E22.33036
G1 F1327.4 X166.975 Y155.804 E22.43014
G1 X166.975 Y154.034 E22.52993
G1 F1330.4 X166.975 Y152.264 E22.62949
G1 X166.975 Y150.494 E22.72906
G1 F1333.3 X166.975 Y148.724 E22.8284
G1 X166.975 Y146.954 E22.92774
G1 F1411.8 X167.292 Y146.245 E22.96891
G1 F1398.6 X167.822 Y145.938 E23.00168
G1 F1321.6 X168.15 Y145.928 E23.02027
G1 F1333.3 X168.18 Y145.838 E23.02559
G1 F1385.7 X168.826 Y145.46 E23.06601
G1 F1408.5 X168.304 Y145.471 E23.09375
G1 F1339.3 X167.782 Y145.482 E23.12293
G1 F1321.6 X167.136 Y145.459 E23.15953
G1 F1345.3 X166.489 Y145.436 E23.19555
G1 F1351.4 X166.507 Y146.195 E23.23759
G1 F1339.3 X166.525 Y146.954 E23.28001
G1 F1333.3 X166.525 Y146.953 E23.28007
G1 X166.525 Y147.842 E23.32996
G1 X166.525 Y148.731 E23.37986
G1 F1330.4 X166.525 Y149.62 E23.42987
G1 X166.526 Y150.509 E23.47988
G1 F1327.4 X166.526 Y151.398 E23.52999
G1 F1324.5 X166.526 Y152.287 E23.58022
G1 X166.526 Y153.176 E23.63045
G1 F1321.6 X166.527 Y154.065 E23.68079
G1 X166.527 Y154.954 E23.73113
G1 F1318.7 X166.527 Y155.843 E23.78158
G1 X166.527 Y156.732 E23.83203
G1 F1315.8 X166.528 Y157.621 E23.8826
G1 F1312.9 X166.528 Y158.51 E23.93327
G1 X166.528 Y159.399 E23.98394
G1 F1310 X166.528 Y160.288 E24.03472
G1 X166.529 Y161.177 E24.08551
G1 F1330.4 X166.507 Y161.812 E24.12125
G1 F1376.1 X166.484 Y162.454 E24.15618
G1 F1408.5 X166.987 Y162.453 E24.18291
G1 F1428.6 X167.49 Y162.453 E24.20926
G1 F1449.3 X167.993 Y162.453 E24.23523
G1 F1470.6 X168.496 Y162.453 E24.26083
G1 F1492.5 X168.999 Y162.453 E24.28605
G0 F3600 X167.03 Y161.989
G1 F1132.1 X166.996 Y162.046 E24.29044
G1 X166.931 Y162.046 E24.29473
G1 X166.899 Y161.989 E24.29905
G1 X166.932 Y161.932 E24.30341
G1 X166.996 Y161.932 E24.30764
G0 F3600 X168.172 Y162.281
G0 X181.174 Y162.446
G1 F1408.5 X181.696 Y162.435 E24.33538
G1 F1339.3 X182.218 Y162.424 E24.36455
G1 F1318.7 X182.867 Y162.447 E24.40141
G1 F1342.3 X183.517 Y162.47 E24.43767
G1 X183.494 Y161.82 E24.47393
G1 F1318.7 X183.471 Y161.17 E24.51084
G1 F1310 X183.471 Y160.281 E24.56163
G1 X183.471 Y159.392 E24.61241
G1 F1312.9 X183.471 Y158.503 E24.66308
G1 X183.472 Y157.614 E24.71375
G1 F1315.8 X183.472 Y156.725 E24.76432
G1 F1318.7 X183.472 Y155.836 E24.81477
G1 X183.472 Y154.947 E24.86522
G1 F1321.6 X183.473 Y154.058 E24.91556
G1 X183.473 Y153.169 E24.9659
G1 F1324.5 X183.473 Y152.28 E25.01613
G1 X183.473 Y151.391 E25.06636
G1 F1327.4 X183.474 Y150.502 E25.11647
G1 F1330.4 X183.474 Y149.613 E25.16648
G1 X183.474 Y148.724 E25.21649
G1 F1333.3 X183.474 Y147.835 E25.26639
G1 X183.475 Y146.946 E25.31628
G1 F1348.3 X183.487 Y146.453 E25.34365
G1 F1373 X183.499 Y145.953 E25.37091
G1 F1398.6 X183.511 Y145.453 E25.39767
G1 F1421.8 X183.009 Y145.453 E25.4241
G1 F1438.8 X182.507 Y145.453 E25.45021
G1 F1456.3 X182.005 Y145.453 E25.476
G1 F1474.2 X181.503 Y145.453 E25.50149
G1 F1492.5 X181.001 Y145.453 E25.52666
G1 F1500 X181.8 Y145.853 E25.57123
G1 X181.834 Y145.953 E25.5765
G1 X182 Y145.953 E25.58479
G1 X182.708 Y146.245 E25.62299
G1 F1411.8 X183.025 Y146.953 E25.66411
G1 F1333.3 X183.025 Y148.723 E25.76346
G1 X183.025 Y150.493 E25.8628
G1 F1330.4 X183.025 Y152.263 E25.96237
G1 X183.025 Y154.033 E26.06193
G1 F1327.4 X183.025 Y155.803 E26.16172
G1 X183.025 Y157.573 E26.2615
G1 F1324.5 X183.025 Y159.343 E26.36151
G1 X183.025 Y161.113 E26.46151
G1 F1405.2 X182.708 Y161.661 E26.49523
G1 F1398.6 X182.178 Y161.968 E26.528
G1 F1321.6 X181.85 Y161.978 E26.54659
G1 F1333.3 X181.82 Y162.068 E26.55191
G1 F1385.7 X181.174 Y162.446 E26.59233
G0 F3600 X183.068 Y161.932
G1 F1136.4 X183.004 Y161.932 E26.59655
G1 X182.971 Y161.989 E26.60088
G1 X183.003 Y162.046 E26.60519
G1 X183.068 Y162.046 E26.60947
G1 X183.102 Y161.989 E26.61384
G0 F3600 X181.828 Y162.281
G0 X172.591 Y162.353
G0 X172.591 Y162.053
G1 F1500 X169 Y162.053 E26.793
G1 X168.52 Y161.813 E26.81977
G1 X168.433 Y161.553 E26.83345
G1 X168 Y161.553 E26.85505
G1 X167.575 Y161.378 E26.87798
G1 X167.4 Y161.042 E26.89688
G1 X167.4 Y146.953 E27.59978
G1 X167.575 Y146.528 E27.62271
G1 X167.896 Y146.361 E27.64077
G1 X168.433 Y146.353 E27.66756
G1 X168.52 Y146.093 E27.68124
G1 X168.909 Y145.853 E27.70404
G1 X172.5 Y145.853 E27.8832
G1 X172.98 Y146.093 E27.90997
G1 X173.067 Y146.353 E27.92365
G1 X176.933 Y146.353 E28.11653
G1 X177.02 Y146.093 E28.13021
G1 X177.409 Y145.853 E28.15301
G1 X181 Y145.853 E28.33216
G1 X181.48 Y146.093 E28.35894
G1 X181.567 Y146.353 E28.37262
G1 X182 Y146.353 E28.39422
G1 X182.425 Y146.528 E28.41715
G1 X182.6 Y146.953 E28.44008
G1 X182.6 Y161.042 E29.14298
G1 X182.425 Y161.378 E29.16188
G1 X182.104 Y161.545 E29.17994
G1 X181.567 Y161.553 E29.20673
G1 X181.48 Y161.813 E29.22041
G1 X181.091 Y162.053 E29.24321
G1 X177.5 Y162.053 E29.42237
G1 X177.02 Y161.813 E29.44914
G1 X176.933 Y161.553 E29.46282
G1 X173.067 Y161.553 E29.6557
G1 X172.98 Y161.813 E29.66937
G1 X172.591 Y162.053 E29.69218
G0 F3600 X172.674 Y162.446
G1 F1470.6 X172.5 Y162.453 E29.70104
G1 F1500 X169 Y162.453 E29.87566
G0 F3600 X166.37 Y162.583
G0 X166.1 Y162.853
G1 F1500 X183.9 Y162.853 E30.7637
G1 X183.9 Y145.053 E31.65175
G1 X166.1 Y145.053 E32.53979
G1 X166.1 Y146.953 E32.63458
G1 X166.1 Y162.853 E33.42784
G0 F3600 X165.7 Y163.253
;TYPE:WALL-OUTER
G1 F1500 X184.3 Y163.253 E34.3558
G1 X184.3 Y144.653 E35.28375
G1 X165.7 Y144.653 E36.21171
G1 X165.7 Y146.953 E36.32646
G1 X165.7 Y163.253 E37.13967
G0 F3600 X165.97 Y162.983
G0 X173.37 Y161.823
G0 X172.66 Y161.573
G1 F1500 X172.535 Y161.651 E37.14702
G1 X169 Y161.653 E37.32338
G1 X168.84 Y161.573 E37.33231
G1 X168.8 Y161.453 E37.33862
G1 X168.8 Y161.153 E37.35358
G1 X168 Y161.153 E37.3935
G1 X167.858 Y161.095 E37.40115
G1 X167.802 Y160.988 E37.40717
G1 X167.8 Y146.953 E38.10738
G1 X167.858 Y146.811 E38.11504
G1 X167.965 Y146.755 E38.12106
G1 X168.8 Y146.753 E38.16272
G1 X168.8 Y146.453 E38.17769
G1 X168.84 Y146.333 E38.184
G1 X168.965 Y146.255 E38.19135
G1 X172.5 Y146.253 E38.36771
G1 X172.66 Y146.333 E38.37663
G1 X172.7 Y146.453 E38.38294
G1 X172.7 Y146.753 E38.39791
G1 X177.3 Y146.753 E38.62741
G1 X177.3 Y146.453 E38.64237
G1 X177.34 Y146.333 E38.64868
G1 X177.465 Y146.255 E38.65604
G1 X181 Y146.253 E38.8324
G1 X181.16 Y146.333 E38.84132
G1 X181.2 Y146.453 E38.84763
G1 X181.2 Y146.753 E38.8626
G1 X182 Y146.753 E38.90251
G1 X182.142 Y146.811 E38.91016
G1 X182.2 Y146.953 E38.91782
G1 X182.198 Y160.988 E39.61803
G1 X182.142 Y161.095 E39.62405
G1 X182.035 Y161.151 E39.63008
G1 X181.2 Y161.153 E39.67173
G1 X181.2 Y161.453 E39.6867
G1 X181.16 Y161.573 E39.69301
G1 X181.035 Y161.651 E39.70036
G1 X177.5 Y161.653 E39.87673
G1 X177.34 Y161.573 E39.88565
G1 X177.3 Y161.453 E39.89196
G1 X177.3 Y161.153 E39.90693
G1 X172.7 Y161.153 E40.13642
G1 X172.7 Y161.453 E40.15139
G1 X172.66 Y161.573 E40.1577
G0 F3600 X173.37 Y161.823
G0 X177.5 Y162.453
;TYPE:WALL-INNER
G1 F1500 X181 Y162.453 E40.33232
G1 F1470.6 X181.174 Y162.446 E40.34118
G0 F3600 X182.828 Y161.781
G0 X183.102 Y145.917
G1 F1136.4 X183.068 Y145.974 E40.34555
G1 X183.003 Y145.974 E40.34983
G1 X182.971 Y145.917 E40.35413
G1 X183.004 Y145.86 E40.35847
G1 X183.068 Y145.86 E40.36269
G0 F3600 X181 Y145.453
G1 F1500 X177.5 Y145.453 E40.5373
G1 F1470.6 X177.326 Y145.46 E40.54616
G0 F3600 X172.5 Y145.453
G1 F1500 X169 Y145.453 E40.72078
G1 F1470.6 X168.826 Y145.46 E40.72964
G0 F3600 X167.03 Y145.917
G1 F1132.1 X166.996 Y145.974 E40.73403
G1 X166.931 Y145.974 E40.73832
G1 X166.899 Y145.917 E40.74265
G1 X166.932 Y145.86 E40.747
G1 X166.996 Y145.86 E40.75123
G0 F3600 X166.918 Y145.871
G1 F3000 E37.75123
;MESH:1x1-plate.stl(4)
G0 F3600 X181.428 Y146.025
G0 X182.428 Y146.525
G0 X184.08 Y162.69
G0 X186.647 Y162.69
G0 X187.211 Y162.69
;TYPE:WALL-INNER
G1 F3000 E40.75123
G1 F1408.5 X187.714 Y162.69 E40.77796
G1 F1428.6 X188.217 Y162.69 E40.80431
G1 F1449.3 X188.72 Y162.69 E40.83028
G1 F1470.6 X189.223 Y162.69 E40.85588
G1 F1492.5 X189.726 Y162.69 E40.8811
G1 F1500 X188.927 Y162.29 E40.92567
G1 X188.893 Y162.19 E40.93094
G1 X188.727 Y162.19 E40.93923
G1 X188.019 Y161.898 E40.97743
G1 F1405.2 X187.702 Y161.351 E41.0111
G1 F1324.5 X187.702 Y159.581 E41.11111
G1 X187.702 Y157.811 E41.21112
G1 F1327.4 X187.702 Y156.041 E41.3109
G1 X187.702 Y154.271 E41.41069
G1 F1330.4 X187.702 Y152.501 E41.51025
G1 X187.702 Y150.731 E41.60982
G1 F1333.3 X187.702 Y148.961 E41.70916
G1 X187.702 Y147.191 E41.8085
G1 F1411.8 X188.019 Y146.482 E41.84967
G1 F1398.6 X188.549 Y146.175 E41.88245
G1 F1321.6 X188.877 Y146.165 E41.90103
G1 F1333.3 X188.907 Y146.075 E41.90635
G1 F1385.7 X189.553 Y145.697 E41.94677
G1 F1408.5 X189.031 Y145.708 E41.97452
G1 F1339.3 X188.509 Y145.719 E42.00369
G1 F1398.6 X187.691 Y145.69 E42.04749
G1 F1500 X187.227 Y145.69 E42.07064
G1 X187.227 Y146.154 E42.09378
G1 F1456.3 X187.239 Y146.672 E42.12041
G1 F1373 X187.252 Y147.19 E42.14865
G1 F1333.3 X187.252 Y148.079 E42.19855
G1 X187.252 Y148.968 E42.24845
G1 F1330.4 X187.252 Y149.857 E42.29845
G1 X187.253 Y150.746 E42.34846
G1 F1327.4 X187.253 Y151.635 E42.39858
G1 F1324.5 X187.253 Y152.524 E42.44881
G1 X187.253 Y153.413 E42.49904
G1 F1321.6 X187.254 Y154.302 E42.54938
G1 X187.254 Y155.191 E42.59972
G1 F1318.7 X187.254 Y156.08 E42.65017
G1 X187.254 Y156.969 E42.70062
G1 F1315.8 X187.255 Y157.858 E42.75118
G1 F1312.9 X187.255 Y158.747 E42.80185
G1 X187.255 Y159.636 E42.85253
G1 F1310 X187.255 Y160.525 E42.90331
G1 X187.256 Y161.414 E42.95409
G1 F1330.4 X187.234 Y162.049 E42.98983
G1 F1376.1 X187.211 Y162.691 E43.02477
