;FLAVOR:Marlin
;TIME:2318
;Filament used: 0.361507m
;Layer height: 0.06
;MINX:165.335
;MINY:157.785
;MINZ:0.3
;MAXX:183.849
;MAXY:191.35
;MAXZ:1.5
;Generated with Cura_SteamEngine main
M140 S68
M105
M190 S68
M104 S200
M105
M109 S200
M82 ;absolute extrusion mode
M201 X500.00 Y500.00 Z100.00 E5000.00 ;Setup machine max acceleration
M203 X500.00 Y500.00 Z10.00 E50.00 ;Setup machine max feedrate
M204 P500.00 R1000.00 T500.00 ;Setup Print/Retract/Travel acceleration
M205 X8.00 Y8.00 Z0.40 E5.00 ;Setup Jerk
M220 S100 ;Reset Feedrate
M221 S100 ;Reset Flowrate

G28 ;Home
G29 ;Automatic Leveling

G92 E0 ;Reset Extruder
G1 Z2.0 F3000 ;Move Z Axis up
G1 X10.1 Y20 Z0.28 F5000.0 ;Move to start position
G1 X10.1 Y200.0 Z0.28 F1500.0 E15 ;Draw the first line
G1 X10.4 Y200.0 Z0.28 F5000.0 ;Move to side a little
G1 X10.4 Y20 Z0.28 F1500.0 E30 ;Draw the second line
G92 E0 ;Reset Extruder
G1 Z2.0 F3000 ;Move Z Axis up

G92 E0
G92 E0
G1 F3000 E-3
;LAYER_COUNT:21
;LAYER:0
M107
;MESH:pro-micro.stl
G0 F3600 X166.154 Y159.294 Z0.3
;TYPE:WALL-OUTER
G1 F3000 E0
G1 F1415.1 X166.254 Y158.704 E0.03165
G1 X166.524 Y158.603 E0.04689
G1 F1764.7 X166.929 Y158.553 E0.0642
G1 F3000 E-2.9358
G0 F3600 X166.929 Y157.785
G0 X165.347 Y157.797
G0 X165.335 Y161.746
G0 X166.154 Y161.746
G1 F3000 E0.0642
G1 F1764.7 X166.154 Y161.834 E0.06793
G0 F3600 X166.154 Y164.286
G1 F1764.7 X166.154 Y164.374 E0.07166
G0 F3600 X166.154 Y166.826
G1 F1764.7 X166.154 Y166.914 E0.07539
G0 F3600 X166.154 Y169.366
G1 F1764.7 X166.154 Y169.454 E0.07912
G0 F3600 X166.154 Y171.906
G1 F1764.7 X166.154 Y171.994 E0.08286
G0 F3600 X166.154 Y174.446
G1 F1764.7 X166.154 Y174.534 E0.08659
G0 F3600 X166.154 Y176.986
G1 F1764.7 X166.154 Y177.074 E0.09032
G0 F3600 X166.154 Y179.526
G1 F1764.7 X166.154 Y179.614 E0.09405
G0 F3600 X166.154 Y182.066
G1 F1764.7 X166.154 Y182.154 E0.09778
G0 F3600 X166.154 Y184.606
G1 F1764.7 X166.154 Y184.694 E0.10151
G0 F3600 X166.154 Y187.146
G1 F1764.7 X166.154 Y187.234 E0.10525
G1 F3000 E-2.89475
G0 F3600 X166.411 Y188.073
G0 X167 Y190.55
;TYPE:WALL-INNER
G1 F3000 E0.10525
G1 F1500 X183 Y190.55 E0.90349
G1 X183 Y188.748 E0.99339
G1 X182.814 Y188.748 E1.00267
G1 X182.381 Y188.613 E1.0253
G1 X182.06 Y188.398 E1.04457
G1 X181.68 Y187.961 E1.07347
G1 X181.504 Y187.278 E1.10865
G1 X181.526 Y186.964 E1.12436
G1 X181.753 Y186.325 E1.15819
G1 X182.137 Y185.92 E1.18603
G1 X181.753 Y185.515 E1.21388
G1 X181.526 Y184.876 E1.24771
G1 X181.504 Y184.566 E1.26321
G1 X181.659 Y183.977 E1.2936
G1 X181.753 Y183.785 E1.30427
G1 X182.137 Y183.38 E1.33211
G1 X181.753 Y182.975 E1.35995
G1 X181.53 Y182.354 E1.39287
G1 X181.504 Y182.022 E1.40949
G1 X181.659 Y181.437 E1.43968
G1 X181.753 Y181.245 E1.45034
G1 X182.137 Y180.84 E1.47819
G1 X181.753 Y180.435 E1.50603
G1 X181.53 Y179.814 E1.53895
G1 X181.504 Y179.482 E1.55557
G1 X181.659 Y178.897 E1.58576
G1 X181.753 Y178.705 E1.59642
G1 X182.137 Y178.3 E1.62427
G1 X181.753 Y177.895 E1.65211
G1 X181.53 Y177.274 E1.68503
G1 X181.504 Y176.942 E1.70164
G1 X181.659 Y176.357 E1.73184
G1 X181.753 Y176.165 E1.7425
G1 X182.137 Y175.76 E1.77035
G1 X181.753 Y175.355 E1.79819
G1 X181.53 Y174.734 E1.83111
G1 X181.504 Y174.402 E1.84772
G1 X181.659 Y173.817 E1.87792
G1 X181.753 Y173.625 E1.88858
G1 X182.137 Y173.22 E1.91643
G1 X181.753 Y172.815 E1.94427
G1 X181.53 Y172.194 E1.97719
G1 X181.504 Y171.862 E1.9938
G1 X181.659 Y171.277 E2.024
G1 X181.753 Y171.085 E2.03466
G1 X182.137 Y170.68 E2.06251
G1 X181.753 Y170.275 E2.09035
G1 X181.53 Y169.654 E2.12327
G1 X181.504 Y169.322 E2.13988
G1 X181.659 Y168.737 E2.17008
G1 X181.753 Y168.545 E2.18074
G1 X182.137 Y168.14 E2.20858
G1 X181.753 Y167.735 E2.23643
G1 X181.53 Y167.114 E2.26935
G1 X181.501 Y166.825 E2.28384
G1 X181.659 Y166.197 E2.31615
G1 X181.753 Y166.005 E2.32681
G1 X182.137 Y165.6 E2.35465
G1 X181.753 Y165.195 E2.3825
G1 X181.659 Y165.003 E2.39316
G1 X181.516 Y164.508 E2.41887
G1 X181.506 Y164.226 E2.43295
G1 X181.659 Y163.657 E2.46234
G1 X181.753 Y163.465 E2.47301
G1 X182.137 Y163.06 E2.50085
G1 X181.753 Y162.655 E2.5287
G1 X181.659 Y162.463 E2.53936
G1 X181.501 Y161.826 E2.5721
G1 X181.542 Y161.504 E2.5883
G1 X181.77 Y160.898 E2.6206
G1 X182.137 Y160.52 E2.64689
G1 X181.892 Y160.29 E2.66365
G1 X181.708 Y160.036 E2.6793
G1 X181.542 Y159.536 E2.70558
G1 X181.542 Y159.451 E2.70982
G1 X168.458 Y159.451 E3.36259
G1 X168.458 Y159.536 E3.36683
G1 X168.292 Y160.036 E3.39311
G1 X168.108 Y160.29 E3.40876
G1 X167.863 Y160.52 E3.42552
G1 X168.108 Y160.75 E3.44229
G1 X168.292 Y161.004 E3.45794
G1 X168.458 Y161.504 E3.48422
G1 X168.499 Y161.826 E3.50042
G1 X168.341 Y162.463 E3.53316
G1 X168.247 Y162.655 E3.54382
G1 X167.863 Y163.06 E3.57167
G1 X168.247 Y163.465 E3.59951
G1 X168.341 Y163.657 E3.61018
G1 X168.494 Y164.226 E3.63957
G1 X168.484 Y164.508 E3.65365
G1 X168.341 Y165.003 E3.67936
G1 X168.247 Y165.195 E3.69002
G1 X167.863 Y165.6 E3.71787
G1 X168.247 Y166.005 E3.74571
G1 X168.341 Y166.197 E3.75638
G1 X168.484 Y166.692 E3.78208
G1 X168.495 Y166.968 E3.79586
G1 X168.341 Y167.543 E3.82556
G1 X168.247 Y167.735 E3.83622
G1 X167.863 Y168.14 E3.86407
G1 X168.247 Y168.545 E3.89191
G1 X168.47 Y169.166 E3.92483
G1 X168.496 Y169.498 E3.94145
G1 X168.341 Y170.083 E3.97164
G1 X168.247 Y170.275 E3.9823
G1 X167.863 Y170.68 E4.01015
G1 X168.247 Y171.085 E4.03799
G1 X168.47 Y171.706 E4.07091
G1 X168.496 Y172.038 E4.08753
G1 X168.341 Y172.623 E4.11772
G1 X168.247 Y172.815 E4.12838
G1 X167.863 Y173.22 E4.15623
G1 X168.247 Y173.625 E4.18407
G1 X168.47 Y174.246 E4.21699
G1 X168.496 Y174.578 E4.2336
G1 X168.341 Y175.163 E4.2638
G1 X168.247 Y175.355 E4.27446
G1 X167.863 Y175.76 E4.30231
G1 X168.247 Y176.165 E4.33015
G1 X168.47 Y176.786 E4.36307
G1 X168.496 Y177.118 E4.37968
G1 X168.341 Y177.703 E4.40988
G1 X168.247 Y177.895 E4.42054
G1 X167.863 Y178.3 E4.44839
G1 X168.247 Y178.705 E4.47623
G1 X168.47 Y179.326 E4.50915
G1 X168.496 Y179.658 E4.52576
G1 X168.341 Y180.243 E4.55596
G1 X168.247 Y180.435 E4.56662
G1 X167.863 Y180.84 E4.59446
G1 X168.247 Y181.245 E4.62231
G1 X168.47 Y181.866 E4.65523
G1 X168.496 Y182.198 E4.67184
G1 X168.341 Y182.783 E4.70203
G1 X168.247 Y182.975 E4.7127
G1 X167.863 Y183.38 E4.74054
G1 X168.247 Y183.785 E4.76839
G1 X168.341 Y183.977 E4.77905
G1 X168.496 Y184.566 E4.80944
G1 X168.474 Y184.876 E4.82494
G1 X168.247 Y185.515 E4.85878
G1 X167.863 Y185.92 E4.88662
G1 X168.247 Y186.325 E4.91446
G1 X168.474 Y186.964 E4.9483
G1 X168.496 Y187.278 E4.964
G1 X168.32 Y187.961 E4.99919
G1 X167.94 Y188.398 E5.02808
G1 X167.619 Y188.613 E5.04735
G1 X167.186 Y188.748 E5.06998
G1 X167 Y188.748 E5.07926
G1 X167 Y190.55 E5.16916
G0 F3600 X166.6 Y190.95
G1 F1500 X183.4 Y190.95 E6.00732
G1 X183.4 Y188.326 E6.13823
G1 X183.272 Y188.365 E6.14491
G1 X182.928 Y188.365 E6.16207
G1 X182.536 Y188.244 E6.18254
G1 X182.343 Y188.115 E6.19412
G1 X182.079 Y187.821 E6.21383
G1 X181.903 Y187.243 E6.24398
G1 X181.916 Y187.054 E6.25343
G1 X182.035 Y186.653 E6.2743
G1 X182.175 Y186.433 E6.28731
G1 X182.441 Y186.186 E6.30542
G1 F1435.4 X183.024 Y185.92 E6.33882
G1 X182.441 Y185.654 E6.37223
G1 F1500 X182.175 Y185.407 E6.39034
G1 X182.035 Y185.187 E6.40335
G1 X181.904 Y184.719 E6.4276
G1 X181.905 Y184.574 E6.43483
G1 X182.035 Y184.113 E6.45873
G1 X182.175 Y183.893 E6.47174
G1 X182.441 Y183.646 E6.48985
G1 F1435.4 X183.024 Y183.38 E6.52326
G1 X182.441 Y183.114 E6.55667
G1 F1500 X182.175 Y182.867 E6.57478
G1 X182.035 Y182.647 E6.58779
G1 X181.918 Y182.256 E6.60815
G1 X181.903 Y182.057 E6.61811
G1 X182.035 Y181.573 E6.64313
G1 X182.175 Y181.353 E6.65614
G1 X182.441 Y181.106 E6.67425
G1 F1435.4 X183.024 Y180.84 E6.70766
G1 X182.441 Y180.574 E6.74107
G1 F1500 X182.175 Y180.327 E6.75918
G1 X182.035 Y180.107 E6.77219
G1 X181.918 Y179.716 E6.79255
G1 X181.903 Y179.517 E6.80251
G1 X182.035 Y179.033 E6.82754
G1 X182.175 Y178.813 E6.84055
G1 X182.441 Y178.566 E6.85866
G1 F1435.4 X183.024 Y178.3 E6.89207
G1 X182.441 Y178.034 E6.92548
G1 F1500 X182.175 Y177.787 E6.94359
G1 X182.035 Y177.567 E6.9566
G1 X181.918 Y177.176 E6.97696
G1 X181.903 Y176.977 E6.98691
G1 X182.035 Y176.493 E7.01194
G1 X182.175 Y176.273 E7.02495
G1 X182.441 Y176.026 E7.04306
G1 F1435.4 X183.024 Y175.76 E7.07647
G1 X182.441 Y175.494 E7.10988
G1 F1500 X182.175 Y175.247 E7.12799
G1 X182.035 Y175.027 E7.141
G1 X181.918 Y174.636 E7.16136
G1 X181.903 Y174.437 E7.17132
G1 X182.035 Y173.953 E7.19635
G1 X182.175 Y173.733 E7.20936
G1 X182.441 Y173.486 E7.22747
G1 F1435.4 X183.024 Y173.22 E7.26088
G1 X182.441 Y172.954 E7.29428
G1 F1500 X182.175 Y172.707 E7.31239
G1 X182.035 Y172.487 E7.3254
G1 X181.918 Y172.096 E7.34577
G1 X181.903 Y171.897 E7.35572
G1 X182.035 Y171.413 E7.38075
G1 X182.175 Y171.193 E7.39376
G1 X182.441 Y170.946 E7.41187
G1 F1435.4 X183.024 Y170.68 E7.44528
G1 X182.441 Y170.414 E7.47869
G1 F1500 X182.175 Y170.167 E7.4968
G1 X182.035 Y169.947 E7.50981
G1 X181.918 Y169.556 E7.53017
G1 X181.903 Y169.357 E7.54013
G1 X182.035 Y168.873 E7.56516
G1 X182.175 Y168.653 E7.57816
G1 X182.441 Y168.406 E7.59627
G1 F1435.4 X183.024 Y168.14 E7.62968
G1 X182.441 Y167.874 E7.66309
G1 F1500 X182.175 Y167.627 E7.6812
G1 X182.035 Y167.407 E7.69421
G1 X181.918 Y167.016 E7.71457
G1 X181.904 Y166.8 E7.72537
G1 X182.035 Y166.333 E7.74957
G1 X182.175 Y166.113 E7.76258
G1 X182.441 Y165.866 E7.78069
G1 F1435.4 X183.024 Y165.6 E7.8141
G1 X182.441 Y165.334 E7.84751
G1 F1500 X182.175 Y165.087 E7.86562
G1 X182.035 Y164.867 E7.87863
G1 X181.901 Y164.359 E7.90484
G1 X182.035 Y163.793 E7.93386
G1 X182.175 Y163.573 E7.94687
G1 X182.441 Y163.326 E7.96498
G1 F1435.4 X183.024 Y163.06 E7.99839
G1 X182.441 Y162.794 E8.0318
G1 F1500 X182.175 Y162.547 E8.04991
G1 X182.035 Y162.327 E8.06292
G1 X181.901 Y161.812 E8.08946
G1 X181.925 Y161.618 E8.09922
G1 X182.064 Y161.185 E8.12191
G1 X182.441 Y160.786 E8.14929
G1 F1435.4 X183.024 Y160.52 E8.1827
G1 X182.441 Y160.254 E8.21611
G1 F1500 X182.064 Y159.855 E8.2435
G1 X181.925 Y159.422 E8.26618
G1 X181.934 Y159.05 E8.28475
G1 X168.066 Y159.05 E8.97663
G1 X168.075 Y159.422 E8.99519
G1 X167.936 Y159.855 E9.01788
G1 X167.559 Y160.254 E9.04527
G1 F1435.4 X166.976 Y160.52 E9.07868
G1 X167.559 Y160.786 E9.11208
G1 F1500 X167.936 Y161.185 E9.13947
G1 X168.075 Y161.618 E9.16216
G1 X168.099 Y161.812 E9.17191
G1 X167.965 Y162.327 E9.19846
G1 X167.825 Y162.547 E9.21147
G1 X167.559 Y162.794 E9.22958
G1 F1435.4 X166.976 Y163.06 E9.26299
G1 X167.559 Y163.326 E9.2964
G1 F1500 X167.825 Y163.573 E9.31451
G1 X167.965 Y163.793 E9.32752
G1 X168.096 Y164.267 E9.35205
G1 X168.088 Y164.448 E9.36109
G1 X167.965 Y164.867 E9.38288
G1 X167.825 Y165.087 E9.39589
G1 X167.559 Y165.334 E9.414
G1 F1435.4 X166.976 Y165.6 E9.44741
G1 X167.559 Y165.866 E9.48082
G1 F1500 X167.825 Y166.113 E9.49893
G1 X167.965 Y166.333 E9.51194
G1 X168.096 Y166.8 E9.53613
G1 X168.097 Y166.929 E9.54257
G1 X167.965 Y167.407 E9.56731
G1 X167.825 Y167.627 E9.58032
G1 X167.559 Y167.874 E9.59843
G1 F1435.4 X166.976 Y168.14 E9.63184
G1 X167.559 Y168.406 E9.66525
G1 F1500 X167.825 Y168.653 E9.68336
G1 X167.965 Y168.873 E9.69637
G1 X168.082 Y169.264 E9.71673
G1 X168.097 Y169.463 E9.72668
G1 X167.965 Y169.947 E9.75171
G1 X167.825 Y170.167 E9.76472
G1 X167.559 Y170.414 E9.78283
G1 F1435.4 X166.976 Y170.68 E9.81624
G1 X167.559 Y170.946 E9.84965
G1 F1500 X167.825 Y171.193 E9.86776
G1 X167.965 Y171.413 E9.88077
G1 X168.082 Y171.804 E9.90113
G1 X168.097 Y172.003 E9.91109
G1 X167.965 Y172.487 E9.93612
G1 X167.825 Y172.707 E9.94913
G1 X167.559 Y172.954 E9.96724
G1 F1435.4 X166.976 Y173.22 E10.00065
G1 X167.559 Y173.486 E10.03406
G1 F1500 X167.825 Y173.733 E10.05217
G1 X167.965 Y173.953 E10.06518
G1 X168.082 Y174.344 E10.08554
G1 X168.097 Y174.543 E10.09549
G1 X167.965 Y175.027 E10.12052
G1 X167.825 Y175.247 E10.13353
G1 X167.559 Y175.494 E10.15164
G1 F1435.4 X166.976 Y175.76 E10.18505
G1 X167.559 Y176.026 E10.21846
G1 F1500 X167.825 Y176.273 E10.23657
G1 X167.965 Y176.493 E10.24958
G1 X168.082 Y176.884 E10.26994
G1 X168.097 Y177.083 E10.2799
G1 X167.965 Y177.567 E10.30493
G1 X167.825 Y177.787 E10.31794
G1 X167.559 Y178.034 E10.33605
G1 F1435.4 X166.976 Y178.3 E10.36946
G1 X167.559 Y178.566 E10.40286
G1 F1500 X167.825 Y178.813 E10.42097
G1 X167.965 Y179.033 E10.43398
G1 X168.082 Y179.424 E10.45435
G1 X168.097 Y179.623 E10.4643
G1 X167.965 Y180.107 E10.48933
G1 X167.825 Y180.327 E10.50234
G1 X167.559 Y180.574 E10.52045
G1 F1435.4 X166.976 Y180.84 E10.55386
G1 X167.559 Y181.106 E10.58727
G1 F1500 X167.825 Y181.353 E10.60538
G1 X167.965 Y181.573 E10.61839
G1 X168.082 Y181.964 E10.63875
G1 X168.097 Y182.163 E10.64871
G1 X167.965 Y182.647 E10.67373
G1 X167.825 Y182.867 E10.68674
G1 X167.559 Y183.114 E10.70485
G1 F1435.4 X166.976 Y183.38 E10.73826
G1 X167.559 Y183.646 E10.77167
G1 F1500 X167.825 Y183.893 E10.78978
G1 X167.965 Y184.113 E10.80279
G1 X168.095 Y184.574 E10.82669
G1 X168.096 Y184.719 E10.83392
G1 X167.965 Y185.187 E10.85817
G1 X167.825 Y185.407 E10.87118
G1 X167.559 Y185.654 E10.88929
G1 F1435.4 X166.976 Y185.92 E10.9227
G1 X167.559 Y186.186 E10.95611
G1 F1500 X167.825 Y186.433 E10.97422
G1 X167.965 Y186.653 E10.98723
G1 X168.084 Y187.054 E11.00809
G1 X168.097 Y187.243 E11.01755
G1 X167.921 Y187.821 E11.04769
G1 X167.657 Y188.115 E11.0674
G1 X167.464 Y188.244 E11.07899
G1 X167.072 Y188.365 E11.09945
G1 X166.728 Y188.365 E11.11661
G1 X166.601 Y188.327 E11.12323
G1 X166.6 Y190.95 E11.25409
G0 F3600 X166.2 Y191.35
;TYPE:WALL-OUTER
G1 F1500 X183.8 Y191.35 E12.13216
G1 F1503.8 X183.801 Y190.093 E12.19471
G1 F1511.3 X183.803 Y188.836 E12.25695
G1 F1519 X183.805 Y187.579 E12.31888
G1 F1634.9 X183.849 Y187.216 E12.33562
G1 F1621.6 X183.742 Y187.664 E12.35688
G1 F1500 X183.49 Y187.882 E12.3735
G1 X183.158 Y187.981 E12.39078
G1 X183.042 Y187.981 E12.39657
G1 X182.69 Y187.875 E12.41491
G1 X182.426 Y187.622 E12.43316
G1 X182.301 Y187.208 E12.45473
G1 X182.43 Y186.751 E12.47842
G1 X182.659 Y186.522 E12.49458
G1 X183.082 Y186.391 E12.51667
G1 X183.49 Y186.498 E12.53771
G1 X183.742 Y186.716 E12.55434
G1 F1503.8 X183.801 Y186.834 E12.5609
G1 F1515.2 X183.805 Y185.04 E12.64951
G1 F1634.9 X183.849 Y184.676 E12.6663
G1 F1621.6 X183.742 Y185.124 E12.68755
G1 F1500 X183.49 Y185.342 E12.70418
G1 X183.082 Y185.449 E12.72522
G1 X182.659 Y185.318 E12.74731
G1 X182.411 Y185.051 E12.76549
G1 X182.302 Y184.673 E12.78512
G1 X182.43 Y184.211 E12.80904
G1 X182.659 Y183.982 E12.82519
G1 X183.082 Y183.851 E12.84729
G1 X183.49 Y183.958 E12.86833
G1 X183.742 Y184.176 E12.88495
G1 F1503.8 X183.801 Y184.294 E12.89152
G1 F1515.2 X183.805 Y182.5 E12.98013
G1 F1634.9 X183.849 Y182.136 E12.99691
G1 F1621.6 X183.742 Y182.584 E13.01817
G1 F1500 X183.49 Y182.802 E13.03479
G1 X183.082 Y182.909 E13.05583
G1 X182.659 Y182.778 E13.07793
G1 X182.411 Y182.511 E13.09611
G1 X182.301 Y182.092 E13.11772
G1 X182.43 Y181.671 E13.13969
G1 X182.659 Y181.442 E13.15584
G1 X183.082 Y181.311 E13.17794
G1 X183.49 Y181.418 E13.19898
G1 X183.742 Y181.636 E13.2156
G1 F1503.8 X183.801 Y181.754 E13.22217
G1 F1515.2 X183.805 Y179.96 E13.31078
G1 F1634.9 X183.849 Y179.596 E13.32756
G1 F1621.6 X183.742 Y180.044 E13.34882
G1 F1500 X183.49 Y180.262 E13.36544
G1 X183.082 Y180.369 E13.38648
G1 X182.659 Y180.238 E13.40858
G1 X182.411 Y179.971 E13.42676
G1 X182.301 Y179.552 E13.44837
G1 X182.43 Y179.131 E13.47034
G1 X182.659 Y178.902 E13.48649
G1 X183.082 Y178.771 E13.50859
G1 X183.49 Y178.878 E13.52963
G1 X183.742 Y179.096 E13.54625
G1 F1503.8 X183.801 Y179.214 E13.55282
G1 F1515.2 X183.805 Y177.42 E13.64143
G1 F1634.9 X183.849 Y177.056 E13.65821
G1 F1621.6 X183.742 Y177.504 E13.67947
G1 F1500 X183.49 Y177.722 E13.69609
G1 X183.082 Y177.829 E13.71713
G1 X182.659 Y177.698 E13.73923
G1 X182.411 Y177.431 E13.75741
G1 X182.301 Y177.012 E13.77902
G1 X182.43 Y176.591 E13.80099
G1 X182.659 Y176.362 E13.81714
G1 X183.082 Y176.231 E13.83924
G1 X183.49 Y176.338 E13.86028
G1 X183.742 Y176.556 E13.8769
G1 F1503.8 X183.801 Y176.674 E13.88347
G1 F1515.2 X183.805 Y174.88 E13.97208
G1 F1634.9 X183.849 Y174.516 E13.98886
G1 F1621.6 X183.742 Y174.964 E14.01012
G1 F1500 X183.49 Y175.182 E14.02674
G1 X183.082 Y175.289 E14.04778
G1 X182.659 Y175.158 E14.06988
G1 X182.411 Y174.891 E14.08806
