;FLAVOR:Marlin
;TIME:1207
;Filament used: 1.04225m
;Layer height: 0.25
;MINX:159.4
;MINY:151.85
;MINZ:0.3
;MAXX:190.6
;MAXY:198.15
;MAXZ:5.05
;Generated with Cura_SteamEngine main
M140 S68
M105
M190 S68
M104 S210
M105
M109 S210
M82 ;absolute extrusion mode
M201 X500.00 Y500.00 Z100.00 E5000.00 ;Setup machine max acceleration
M203 X500.00 Y500.00 Z10.00 E50.00 ;Setup machine max feedrate
M204 P500.00 R1000.00 T500.00 ;Setup Print/Retract/Travel acceleration
M205 X8.00 Y8.00 Z0.40 E5.00 ;Setup Jerk
M220 S100 ;Reset Feedrate
M221 S100 ;Reset Flowrate

G28 ;Home
G29 ;Automatic Leveling

G92 E0 ;Reset Extruder
G1 Z2.0 F3000 ;Move Z Axis up
G1 X10.1 Y20 Z0.28 F5000.0 ;Move to start position
G1 X10.1 Y200.0 Z0.28 F1500.0 E15 ;Draw the first line
G1 X10.4 Y200.0 Z0.28 F5000.0 ;Move to side a little
G1 X10.4 Y20 Z0.28 F1500.0 E30 ;Draw the second line
G92 E0 ;Reset Extruder
G1 Z2.0 F3000 ;Move Z Axis up

G92 E0
G92 E0
G1 F3000 E-3
;LAYER_COUNT:20
;LAYER:0
M107
G0 F3600 X160.397 Y152.981 Z0.3
G0 X159.4 Y156.075
;TYPE:SKIRT
G1 F3000 E0
G1 F1500 X159.409 Y155.41 E0.03318
G1 X159.457 Y154.876 E0.05993
G1 X159.583 Y154.355 E0.08667
G1 X159.785 Y153.858 E0.11344
G1 X160.058 Y153.397 E0.14017
G1 X160.397 Y152.981 E0.16694
G1 X160.794 Y152.621 E0.19368
G1 X161.241 Y152.323 E0.22048
G1 X161.726 Y152.095 E0.24722
G1 X162.24 Y151.942 E0.27397
G1 X162.981 Y151.851 E0.31122
G1 X186.345 Y151.85 E1.47685
G1 X187.043 Y151.86 E1.51168
G1 X187.577 Y151.908 E1.53843
G1 X188.098 Y152.034 E1.56517
G1 X188.595 Y152.237 E1.59195
G1 X189.056 Y152.511 E1.61871
G1 X189.471 Y152.85 E1.64544
G1 X189.831 Y153.248 E1.67222
G1 X190.128 Y153.694 E1.69895
G1 X190.356 Y154.18 E1.72573
G1 X190.508 Y154.694 E1.75247
G1 X190.599 Y155.432 E1.78957
G1 X190.6 Y193.859 E3.7067
G1 X190.591 Y194.586 E3.74298
G1 X190.544 Y195.12 E3.76972
G1 X190.419 Y195.641 E3.79645
G1 X190.217 Y196.138 E3.82322
G1 X189.944 Y196.6 E3.84999
G1 X189.606 Y197.016 E3.87673
G1 X189.209 Y197.377 E3.9035
G1 X188.763 Y197.675 E3.93026
G1 X188.278 Y197.903 E3.957
G1 X187.764 Y198.057 E3.98377
G1 X187.019 Y198.149 E4.02122
G1 X163.661 Y198.15 E5.18655
G1 X162.963 Y198.141 E5.22138
G1 X162.428 Y198.094 E5.24817
G1 X161.907 Y197.968 E5.27492
G1 X161.41 Y197.766 E5.30168
G1 X160.949 Y197.493 E5.32841
G1 X160.533 Y197.154 E5.35518
G1 X160.172 Y196.758 E5.38192
G1 X159.874 Y196.312 E5.40868
G1 X159.646 Y195.826 E5.43546
G1 X159.493 Y195.312 E5.46222
G1 X159.401 Y194.565 E5.49977
G1 X159.4 Y156.075 E7.42004
G0 F3600 X159.8 Y156.081
G1 F1500 X159.809 Y155.416 E7.45322
G1 X159.856 Y154.912 E7.47847
G1 X159.982 Y154.423 E7.50367
G1 X160.183 Y153.959 E7.52889
G1 X160.454 Y153.532 E7.55413
G1 X160.789 Y153.154 E7.57932
G1 X161.18 Y152.833 E7.60456
G1 X161.617 Y152.578 E7.62981
G1 X162.088 Y152.394 E7.65503
G1 X162.582 Y152.288 E7.68024
G1 X163.027 Y152.251 E7.70252
G1 X186.339 Y152.25 E8.86556
G1 X187.037 Y152.26 E8.90039
G1 X187.54 Y152.307 E8.92559
G1 X188.03 Y152.433 E8.95083
G1 X188.494 Y152.635 E8.97608
G1 X188.92 Y152.907 E9.00129
G1 X189.298 Y153.242 E9.02649
G1 X189.618 Y153.633 E9.0517
G1 X189.873 Y154.07 E9.07694
G1 X190.056 Y154.541 E9.10215
G1 X190.163 Y155.035 E9.12737
G1 X190.199 Y155.69 E9.1601
G1 X190.2 Y193.854 E11.06411
G1 X190.191 Y194.581 E11.10038
G1 X190.145 Y195.084 E11.12558
G1 X190.02 Y195.574 E11.15081
G1 X189.819 Y196.038 E11.17604
G1 X189.548 Y196.465 E11.20127
G1 X189.213 Y196.844 E11.2265
G1 X188.823 Y197.165 E11.2517
G1 X188.387 Y197.421 E11.27693
G1 X187.916 Y197.604 E11.30214
G1 X187.422 Y197.712 E11.32737
G1 X186.972 Y197.749 E11.34989
G1 X163.666 Y197.75 E12.51263
G1 X162.968 Y197.741 E12.54746
G1 X162.464 Y197.694 E12.57271
G1 X161.974 Y197.569 E12.59794
G1 X161.51 Y197.368 E12.62317
G1 X161.084 Y197.097 E12.64836
G1 X160.705 Y196.762 E12.6736
G1 X160.384 Y196.371 E12.69883
G1 X160.129 Y195.935 E12.72403
G1 X159.945 Y195.464 E12.74926
G1 X159.838 Y194.97 E12.77448
G1 X159.801 Y194.517 E12.79715
G1 X159.8 Y156.081 E14.71473
G1 F3000 E11.71473
;MESH:nano-mount.stl
G0 F3600 X162.335 Y156.081
G0 X167.268 Y162.82
;TYPE:WALL-OUTER
G1 F3000 E14.71473
G1 F1570.7 X167.716 Y162.82 E14.73608
G0 F3600 X168.399 Y162.82
G0 X169.018 Y163.788
G0 X169.165 Y164.981
G0 X168.399 Y165.36
G0 X167.716 Y165.36
G1 F1570.7 X167.268 Y165.36 E14.75742
G0 F3600 X166.601 Y165.36
G0 X165.982 Y166.328
G0 X165.834 Y167.52
G0 X166.601 Y167.9
G0 X167.268 Y167.9
G1 F1570.7 X167.716 Y167.9 E14.77877
G0 F3600 X168.399 Y167.9
G0 X169.018 Y168.868
G0 X169.165 Y170.061
G0 X168.399 Y170.44
G0 X167.716 Y170.44
G1 F1570.7 X167.268 Y170.44 E14.80011
G0 F3600 X166.601 Y170.44
G0 X165.982 Y171.408
G0 X165.834 Y172.6
G0 X166.601 Y172.98
G0 X167.268 Y172.98
G1 F1570.7 X167.716 Y172.98 E14.82146
G0 F3600 X168.399 Y172.98
G0 X169.018 Y173.948
G0 X169.165 Y175.141
G0 X168.399 Y175.52
G0 X167.716 Y175.52
G1 F1570.7 X167.268 Y175.52 E14.8428
G0 F3600 X166.601 Y175.52
G0 X165.982 Y176.488
G0 X165.834 Y177.68
G0 X166.601 Y178.06
G0 X167.268 Y178.06
G1 F1570.7 X167.716 Y178.06 E14.86415
G0 F3600 X168.399 Y178.06
G0 X169.018 Y179.028
G0 X169.165 Y180.221
G0 X168.399 Y180.6
G0 X167.716 Y180.6
G1 F1570.7 X167.268 Y180.6 E14.88549
G0 F3600 X166.601 Y180.6
G0 X165.982 Y181.568
G0 X165.834 Y182.76
G0 X166.601 Y183.14
G0 X167.268 Y183.14
G1 F1570.7 X167.716 Y183.14 E14.90684
G0 F3600 X168.399 Y183.14
G0 X169.018 Y184.108
G0 X169.165 Y185.301
G0 X168.399 Y185.68
G0 X167.716 Y185.68
G1 F1570.7 X167.268 Y185.68 E14.92818
G0 F3600 X166.601 Y185.68
G0 X165.982 Y186.648
G0 X165.834 Y187.84
G0 X166.601 Y188.22
G0 X167.268 Y188.22
G1 F1570.7 X167.716 Y188.22 E14.94953
G0 F3600 X168.399 Y188.22
G0 X169.018 Y189.188
G0 X169.165 Y190.381
G0 X168.399 Y190.76
G0 X167.716 Y190.76
G1 F1570.7 X167.268 Y190.76 E14.97087
G0 F3600 X166.601 Y190.76
G0 X165.982 Y191.728
G0 X166.644 Y193.731
G0 X167.284 Y193.83
;TYPE:WALL-INNER
G1 F1032.7 X166.525 Y193.429 E15.03308
G1 F1304.3 X166.159 Y193.063 E15.06278
G1 F1500 X166.029 Y192.869 E15.07443
G1 X165.829 Y192.35 E15.10218
G1 X165.821 Y191.814 E15.12892
G1 X165.866 Y191.583 E15.14066
G1 X166.066 Y191.118 E15.16592
G1 X166.396 Y190.76 E15.19021
G1 X166.066 Y190.402 E15.2145
G1 X165.83 Y189.852 E15.24436
G1 X165.821 Y189.274 E15.2732
G1 X165.866 Y189.043 E15.28494
G1 X166.066 Y188.578 E15.31019
G1 X166.396 Y188.22 E15.33448
G1 X166.066 Y187.862 E15.35877
G1 X165.83 Y187.312 E15.38863
G1 X165.821 Y186.734 E15.41747
G1 X165.866 Y186.503 E15.42921
G1 X166.066 Y186.038 E15.45447
G1 X166.396 Y185.68 E15.47876
G1 X166.066 Y185.322 E15.50305
G1 X165.83 Y184.772 E15.53291
G1 X165.821 Y184.194 E15.56175
G1 X165.866 Y183.963 E15.57349
G1 X166.066 Y183.498 E15.59874
G1 X166.396 Y183.14 E15.62304
G1 X166.066 Y182.782 E15.64733
G1 X165.83 Y182.232 E15.67719
G1 X165.821 Y181.654 E15.70603
G1 X165.866 Y181.423 E15.71777
G1 X166.066 Y180.958 E15.74302
G1 X166.396 Y180.6 E15.76731
G1 X166.066 Y180.242 E15.7916
G1 X165.83 Y179.692 E15.82146
G1 X165.821 Y179.114 E15.8503
G1 X165.866 Y178.883 E15.86204
G1 X166.066 Y178.418 E15.8873
G1 X166.396 Y178.06 E15.91159
G1 X166.066 Y177.702 E15.93588
G1 X165.83 Y177.152 E15.96574
G1 X165.821 Y176.574 E15.99458
G1 X165.866 Y176.343 E16.00632
G1 X166.066 Y175.878 E16.03157
G1 X166.396 Y175.52 E16.05586
G1 X166.066 Y175.162 E16.08016
G1 X165.83 Y174.612 E16.11002
G1 X165.821 Y174.034 E16.13886
G1 X165.866 Y173.803 E16.1506
G1 X166.066 Y173.338 E16.17585
G1 X166.396 Y172.98 E16.20014
G1 X166.066 Y172.622 E16.22443
G1 X165.83 Y172.072 E16.25429
G1 X165.821 Y171.494 E16.28313
G1 X165.866 Y171.263 E16.29487
G1 X166.066 Y170.798 E16.32013
G1 X166.396 Y170.44 E16.34442
G1 X166.066 Y170.082 E16.36871
G1 X165.83 Y169.532 E16.39857
G1 X165.821 Y168.954 E16.42741
G1 X165.866 Y168.723 E16.43915
G1 X166.066 Y168.258 E16.4644
G1 X166.396 Y167.9 E16.48869
G1 X166.066 Y167.542 E16.51299
G1 X165.83 Y166.992 E16.54284
G1 X165.821 Y166.414 E16.57168
G1 X165.866 Y166.183 E16.58343
G1 X166.066 Y165.718 E16.60868
G1 X166.396 Y165.36 E16.63297
G1 X166.066 Y165.002 E16.65726
G1 X165.83 Y164.452 E16.68712
G1 X165.821 Y163.874 E16.71596
G1 X165.866 Y163.643 E16.7277
G1 X166.066 Y163.178 E16.75296
G1 X166.396 Y162.82 E16.77725
G1 X166.066 Y162.462 E16.80154
G1 X165.83 Y161.912 E16.8314
G1 X165.821 Y161.334 E16.86024
G1 X165.866 Y161.103 E16.87198
G1 X166.029 Y160.711 E16.89316
G1 X166.159 Y160.517 E16.90481
G1 X166.634 Y160.091 E16.93664
G1 X167.18 Y159.88 E16.96584
G1 X167.716 Y159.871 E16.99259
G1 X167.947 Y159.916 E17.00433
G1 X168.339 Y160.079 E17.02551
G1 X168.533 Y160.209 E17.03716
G1 X168.919 Y160.613 E17.06504
G1 X169.17 Y161.184 E17.09616
G1 X169.178 Y161.879 E17.13083
G1 X168.934 Y162.462 E17.16236
G1 X168.604 Y162.82 E17.18665
G1 X168.934 Y163.178 E17.21095
G1 X169.178 Y163.762 E17.24252
G1 X169.177 Y164.421 E17.2754
G1 X168.934 Y165.002 E17.30682
G1 X168.604 Y165.36 E17.33111
G1 X168.934 Y165.718 E17.3554
G1 X169.178 Y166.302 E17.38698
G1 X169.177 Y166.961 E17.41986
G1 X168.934 Y167.542 E17.45128
G1 X168.604 Y167.9 E17.47557
G1 X168.934 Y168.258 E17.49986
G1 X169.178 Y168.842 E17.53143
G1 X169.177 Y169.501 E17.56431
G1 X168.934 Y170.082 E17.59573
G1 X168.604 Y170.44 E17.62002
G1 X168.934 Y170.798 E17.64431
G1 X169.178 Y171.382 E17.67589
G1 X169.177 Y172.041 E17.70877
G1 X168.934 Y172.622 E17.74019
G1 X168.604 Y172.98 E17.76448
G1 X168.934 Y173.338 E17.78877
G1 X169.178 Y173.922 E17.82035
G1 X169.177 Y174.581 E17.85322
G1 X168.934 Y175.162 E17.88464
G1 X168.604 Y175.52 E17.90893
G1 X168.934 Y175.878 E17.93323
G1 X169.178 Y176.462 E17.9648
G1 X169.177 Y177.121 E17.99768
G1 X168.934 Y177.702 E18.0291
G1 X168.604 Y178.06 E18.05339
G1 X168.934 Y178.418 E18.07768
G1 X169.178 Y179.002 E18.10926
G1 X169.177 Y179.661 E18.14214
G1 X168.934 Y180.242 E18.17356
G1 X168.604 Y180.6 E18.19785
G1 X168.934 Y180.958 E18.22214
G1 X169.178 Y181.542 E18.25371
G1 X169.177 Y182.201 E18.28659
G1 X168.934 Y182.782 E18.31801
G1 X168.604 Y183.14 E18.3423
G1 X168.934 Y183.498 E18.36659
G1 X169.178 Y184.082 E18.39817
G1 X169.177 Y184.741 E18.43105
G1 X168.934 Y185.322 E18.46247
G1 X168.604 Y185.68 E18.48676
G1 X168.934 Y186.038 E18.51105
G1 X169.178 Y186.622 E18.54263
G1 X169.177 Y187.292 E18.57605
G1 X168.934 Y187.862 E18.60697
G1 X168.604 Y188.22 E18.63126
G1 X168.934 Y188.578 E18.65555
G1 X169.18 Y189.156 E18.68689
G1 X169.174 Y189.831 E18.72057
G1 X168.934 Y190.402 E18.75147
G1 X168.604 Y190.76 E18.77576
G1 X168.934 Y191.118 E18.80005
G1 X169.156 Y191.647 E18.82867
G1 X169.179 Y192.246 E18.85858
G1 X169.134 Y192.477 E18.87032
G1 X168.971 Y192.869 E18.8915
G1 X168.841 Y193.063 E18.90315
G1 X168.533 Y193.371 E18.92488
G1 F1140.7 X167.841 Y193.825 E18.97918
G1 X168.428 Y193.949 E19.01854
G1 F1500 X181.572 Y193.949 E19.6743
G1 F1385.7 X181.996 Y193.917 E19.69726
G1 F1083 X182.284 Y193.83 E19.71805
G1 F1032.7 X181.525 Y193.429 E19.78025
G1 F1304.3 X181.159 Y193.063 E19.80995
G1 F1500 X181.029 Y192.869 E19.8216
G1 X180.866 Y192.477 E19.84278
G1 X180.821 Y192.246 E19.85452
G1 X180.844 Y191.647 E19.88443
G1 X181.066 Y191.118 E19.91305
G1 X181.396 Y190.76 E19.93734
G1 X181.066 Y190.402 E19.96163
G1 X180.826 Y189.831 E19.99253
G1 X180.819 Y189.157 E20.02616
G1 X181.066 Y188.578 E20.05757
G1 X181.396 Y188.22 E20.08186
G1 X181.066 Y187.862 E20.10615
G1 X180.822 Y187.289 E20.13722
G1 X180.823 Y186.619 E20.17065
G1 X181.066 Y186.038 E20.20207
G1 X181.396 Y185.68 E20.22636
G1 X181.066 Y185.322 E20.25065
G1 X180.822 Y184.738 E20.28223
G1 X180.823 Y184.079 E20.3151
G1 X181.066 Y183.498 E20.34652
G1 X181.396 Y183.14 E20.37081
G1 X181.066 Y182.782 E20.3951
G1 X180.822 Y182.198 E20.42668
G1 X180.823 Y181.539 E20.45956
G1 X181.066 Y180.958 E20.49098
G1 X181.396 Y180.6 E20.51527
G1 X181.066 Y180.242 E20.53956
G1 X180.822 Y179.658 E20.57114
G1 X180.823 Y178.999 E20.60402
G1 X181.066 Y178.418 E20.63543
G1 X181.396 Y178.06 E20.65973
G1 X181.066 Y177.702 E20.68402
G1 X180.822 Y177.118 E20.71559
G1 X180.823 Y176.459 E20.74847
G1 X181.066 Y175.878 E20.77989
G1 X181.396 Y175.52 E20.80418
G1 X181.066 Y175.162 E20.82847
G1 X180.822 Y174.578 E20.86005
G1 X180.823 Y173.919 E20.89293
G1 X181.066 Y173.338 E20.92435
G1 X181.396 Y172.98 E20.94864
G1 X181.066 Y172.622 E20.97293
G1 X180.822 Y172.038 E21.00451
G1 X180.823 Y171.379 E21.03738
G1 X181.066 Y170.798 E21.0688
G1 X181.396 Y170.44 E21.09309
G1 X181.066 Y170.082 E21.11738
G1 X180.822 Y169.498 E21.14896
G1 X180.823 Y168.839 E21.18184
G1 X181.066 Y168.258 E21.21326
G1 X181.396 Y167.9 E21.23755
G1 X181.066 Y167.542 E21.26184
G1 X180.822 Y166.958 E21.29342
G1 X180.823 Y166.299 E21.3263
G1 X181.066 Y165.718 E21.35771
G1 X181.396 Y165.36 E21.38201
G1 X181.066 Y165.002 E21.4063
G1 X180.822 Y164.418 E21.43787
G1 X180.823 Y163.759 E21.47075
G1 X181.066 Y163.178 E21.50217
G1 X181.396 Y162.82 E21.52646
G1 X181.066 Y162.462 E21.55075
G1 X180.829 Y161.91 E21.58072
G1 X180.819 Y161.209 E21.6157
G1 X181.081 Y160.613 E21.64818
G1 X181.467 Y160.209 E21.67606
G1 X181.661 Y160.079 E21.68771
G1 X182.18 Y159.88 E21.71544
G1 X182.716 Y159.871 E21.74218
G1 X182.947 Y159.916 E21.75393
G1 X183.366 Y160.092 E21.7766
G1 X183.841 Y160.517 E21.8084
G1 X183.971 Y160.711 E21.82005
G1 X184.133 Y161.103 E21.84121
G1 X184.18 Y161.334 E21.85297
G1 X184.17 Y161.91 E21.88171
G1 X183.934 Y162.462 E21.91166
G1 X183.604 Y162.82 E21.93595
G1 X183.934 Y163.178 E21.96024
G1 X184.133 Y163.643 E21.98548
G1 X184.18 Y163.874 E21.99724
G1 X184.17 Y164.45 E22.02598
G1 X183.934 Y165.002 E22.05593
G1 X183.604 Y165.36 E22.08022
G1 X183.934 Y165.718 E22.10451
G1 X184.133 Y166.183 E22.12975
G1 X184.18 Y166.414 E22.14151
G1 X184.17 Y166.99 E22.17025
G1 X183.934 Y167.542 E22.2002
G1 X183.604 Y167.9 E22.22449
G1 X183.934 Y168.258 E22.24878
G1 X184.133 Y168.723 E22.27402
G1 X184.18 Y168.954 E22.28578
G1 X184.17 Y169.53 E22.31452
G1 X183.934 Y170.082 E22.34447
G1 X183.604 Y170.44 E22.36876
G1 X183.934 Y170.798 E22.39305
G1 X184.133 Y171.263 E22.41829
G1 X184.18 Y171.494 E22.43005
G1 X184.17 Y172.07 E22.45879
G1 X183.934 Y172.622 E22.48874
G1 X183.604 Y172.98 E22.51303
G1 X183.934 Y173.338 E22.53732
G1 X184.133 Y173.803 E22.56255
G1 X184.18 Y174.034 E22.57432
G1 X184.17 Y174.61 E22.60306
G1 X183.934 Y175.162 E22.63301
G1 X183.604 Y175.52 E22.6573
G1 X183.934 Y175.878 E22.68159
G1 X184.133 Y176.343 E22.70682
G1 X184.18 Y176.574 E22.71858
G1 X184.17 Y177.15 E22.74733
G1 X183.934 Y177.702 E22.77728
G1 X183.604 Y178.06 E22.80157
G1 X183.934 Y178.418 E22.82586
G1 X184.133 Y178.883 E22.85109
G1 X184.18 Y179.114 E22.86285
G1 X184.17 Y179.69 E22.89159
G1 X183.934 Y180.242 E22.92155
G1 X183.604 Y180.6 E22.94584
G1 X183.934 Y180.958 E22.97013
G1 X184.133 Y181.423 E22.99536
G1 X184.18 Y181.654 E23.00712
G1 X184.17 Y182.23 E23.03586
G1 X183.934 Y182.782 E23.06581
G1 X183.604 Y183.14 E23.09011
G1 X183.934 Y183.498 E23.1144
G1 X184.133 Y183.963 E23.13963
G1 X184.18 Y184.194 E23.15139
G1 X184.17 Y184.77 E23.18013
G1 X183.934 Y185.322 E23.21008
G1 X183.604 Y185.68 E23.23437
G1 X183.934 Y186.038 E23.25867
G1 X184.133 Y186.503 E23.2839
G1 X184.18 Y186.734 E23.29566
G1 X184.17 Y187.31 E23.3244
G1 X183.934 Y187.862 E23.35435
G1 X183.604 Y188.22 E23.37864
G1 X183.934 Y188.578 E23.40293
G1 X184.133 Y189.043 E23.42817
G1 X184.18 Y189.274 E23.43993
G1 X184.17 Y189.85 E23.46867
G1 X183.934 Y190.402 E23.49862
G1 X183.604 Y190.76 E23.52291
G1 X183.934 Y191.118 E23.5472
G1 X184.133 Y191.583 E23.57244
G1 X184.18 Y191.814 E23.5842
G1 X184.171 Y192.35 E23.61094
G1 X183.971 Y192.869 E23.63869
G1 X183.841 Y193.063 E23.65034
G1 X183.533 Y193.371 E23.67207
G1 F1140.7 X182.841 Y193.825 E23.72637
G1 X183.428 Y193.949 E23.76573
G1 F1500 X186.4 Y193.95 E23.91401
G1 X186.4 Y156.05 E25.80484
G1 X163.601 Y156.051 E26.94229
G1 X163.601 Y193.949 E28.83303
G1 X166.572 Y193.949 E28.98125
G1 F1385.7 X166.996 Y193.917 E29.00422
G1 F1083 X167.284 Y193.83 E29.02501
G0 F3600 X167.751 Y193.307
;TYPE:WALL-OUTER
G1 F1500 X167.207 Y193.294 E29.05215
G1 X166.75 Y193.088 E29.07716
G1 X166.399 Y192.715 E29.10272
G1 X166.223 Y192.281 E29.12608
G1 X166.236 Y191.737 E29.15323
G1 X166.411 Y191.32 E29.17579
G1 X166.815 Y190.929 E29.20384
G1 F1534.5 X167.268 Y190.76 E29.22742
G1 X166.815 Y190.591 E29.251
