;FLAVOR:Marlin
;TIME:967
;Filament used: 0.546801m
;Layer height: 0.15
;MINX:152.4
;MINY:152.4
;MINZ:0.3
;MAXX:197.6
;MAXY:197.6
;MAXZ:1.95
;Generated with Cura_SteamEngine main
M140 S60
M105
M190 S60
M104 S200
M105
M109 S200
M82 ;absolute extrusion mode
M201 X500.00 Y500.00 Z100.00 E5000.00 ;Setup machine max acceleration
M203 X500.00 Y500.00 Z10.00 E50.00 ;Setup machine max feedrate
M204 P500.00 R1000.00 T500.00 ;Setup Print/Retract/Travel acceleration
M205 X8.00 Y8.00 Z0.40 E5.00 ;Setup Jerk
M220 S100 ;Reset Feedrate
M221 S100 ;Reset Flowrate

G28 ;Home
G29 ;Automatic Leveling

G92 E0 ;Reset Extruder
G1 Z2.0 F3000 ;Move Z Axis up
G1 X10.1 Y20 Z0.28 F5000.0 ;Move to start position
G1 X10.1 Y200.0 Z0.28 F1500.0 E15 ;Draw the first line
G1 X10.4 Y200.0 Z0.28 F5000.0 ;Move to side a little
G1 X10.4 Y20 Z0.28 F1500.0 E30 ;Draw the second line
G92 E0 ;Reset Extruder
G1 Z2.0 F3000 ;Move Z Axis up

G92 E0
G92 E0
G1 F3000 E-3
;LAYER_COUNT:12
;LAYER:0
M107
G0 F3600 X153.397 Y153.531 Z0.3
G0 X152.4 Y156.625
;TYPE:SKIRT
G1 F3000 E0
G1 F1500 X152.409 Y155.96 E0.03318
G1 X152.457 Y155.426 E0.05993
G1 X152.583 Y154.905 E0.08667
G1 X152.785 Y154.408 E0.11344
G1 X153.058 Y153.947 E0.14017
G1 X153.397 Y153.531 E0.16694
G1 X153.794 Y153.171 E0.19368
G1 X154.241 Y152.873 E0.22048
G1 X154.726 Y152.645 E0.24722
G1 X155.24 Y152.492 E0.27397
G1 X155.981 Y152.401 E0.31122
G1 X193.345 Y152.4 E2.17531
G1 X194.043 Y152.41 E2.21014
G1 X194.577 Y152.458 E2.23689
G1 X195.098 Y152.584 E2.26363
G1 X195.595 Y152.787 E2.29042
G1 X196.056 Y153.061 E2.31717
G1 X196.471 Y153.4 E2.34391
G1 X196.831 Y153.798 E2.37068
G1 X197.128 Y154.244 E2.39741
G1 X197.356 Y154.73 E2.4242
G1 X197.508 Y155.244 E2.45094
G1 X197.599 Y155.982 E2.48803
G1 X197.6 Y193.309 E4.35029
G1 X197.591 Y194.036 E4.38656
G1 X197.544 Y194.57 E4.4133
G1 X197.419 Y195.091 E4.44003
G1 X197.217 Y195.588 E4.4668
G1 X196.944 Y196.05 E4.49357
G1 X196.606 Y196.466 E4.52031
G1 X196.209 Y196.827 E4.54708
G1 X195.763 Y197.125 E4.57384
G1 X195.278 Y197.353 E4.60058
G1 X194.764 Y197.507 E4.62735
G1 X194.019 Y197.599 E4.6648
G1 X156.661 Y197.6 E6.5286
G1 X155.963 Y197.591 E6.56343
G1 X155.428 Y197.544 E6.59022
G1 X154.907 Y197.418 E6.61696
G1 X154.41 Y197.216 E6.64373
G1 X153.949 Y196.943 E6.67046
G1 X153.533 Y196.604 E6.69723
G1 X153.172 Y196.208 E6.72396
G1 X152.874 Y195.762 E6.75072
G1 X152.646 Y195.276 E6.77751
G1 X152.493 Y194.762 E6.80426
G1 X152.401 Y194.015 E6.84181
G1 X152.4 Y156.625 E8.70721
G0 F3600 X152.8 Y156.631
G1 F1500 X152.809 Y155.966 E8.74039
G1 X152.856 Y155.462 E8.76564
G1 X152.982 Y154.973 E8.79083
G1 X153.183 Y154.509 E8.81606
G1 X153.454 Y154.082 E8.84129
G1 X153.789 Y153.704 E8.86649
G1 X154.18 Y153.383 E8.89173
G1 X154.617 Y153.128 E8.91697
G1 X155.088 Y152.944 E8.9422
G1 X155.582 Y152.838 E8.96741
G1 X156.027 Y152.801 E8.98969
G1 X193.339 Y152.8 E10.85119
G1 X194.037 Y152.81 E10.88602
G1 X194.54 Y152.857 E10.91122
G1 X195.03 Y152.983 E10.93646
G1 X195.494 Y153.185 E10.96171
G1 X195.92 Y153.457 E10.98692
G1 X196.298 Y153.792 E11.01212
G1 X196.618 Y154.183 E11.03733
G1 X196.873 Y154.62 E11.06257
G1 X197.056 Y155.091 E11.08778
G1 X197.163 Y155.585 E11.113
G1 X197.199 Y156.24 E11.14573
G1 X197.2 Y193.304 E12.99486
G1 X197.191 Y194.031 E13.03113
G1 X197.145 Y194.534 E13.05633
G1 X197.02 Y195.024 E13.08156
G1 X196.819 Y195.488 E13.10679
G1 X196.548 Y195.915 E13.13202
G1 X196.213 Y196.294 E13.15725
G1 X195.823 Y196.615 E13.18245
G1 X195.387 Y196.871 E13.20768
G1 X194.916 Y197.054 E13.23289
G1 X194.422 Y197.162 E13.25812
G1 X193.76 Y197.199 E13.2912
G1 X156.666 Y197.2 E15.14182
G1 X155.968 Y197.191 E15.17665
G1 X155.464 Y197.144 E15.2019
G1 X154.974 Y197.019 E15.22713
G1 X154.51 Y196.818 E15.25236
G1 X154.084 Y196.547 E15.27755
G1 X153.705 Y196.212 E15.30278
G1 X153.384 Y195.821 E15.32802
G1 X153.129 Y195.385 E15.35322
G1 X152.945 Y194.914 E15.37845
G1 X152.838 Y194.42 E15.40367
G1 X152.801 Y193.967 E15.42634
G1 X152.8 Y156.631 E17.28904
G1 F3000 E14.28904
;MESH:5x12-plate.stl
G0 F3600 X155.335 Y156.631
G0 X156.42 Y156.631
G0 X157.572 Y171.928
G0 X158.072 Y172.928
G0 X172.769 Y173.4
G1 F3000 E17.28904
G0 F3600 X172.769 Y173.037
;TYPE:WALL-INNER
G1 F1500 X172.5 Y173.1 E17.30283
G1 X158.5 Y173.1 E18.00129
G1 X158.268 Y173.054 E18.01309
G1 X158.019 Y172.86 E18.02884
G1 X157.908 Y172.604 E18.04276
G1 X157.9 Y172.067 E18.06955
G1 X157.64 Y171.98 E18.08323
G1 X157.4 Y171.591 E18.10604
G1 X157.4 Y168 E18.28519
G1 X157.64 Y167.52 E18.31196
G1 X157.9 Y167.433 E18.32564
G1 X157.9 Y163.567 E18.51852
G1 X157.64 Y163.48 E18.5322
G1 X157.4 Y163.091 E18.555
G1 X157.4 Y159.5 E18.73416
G1 X157.64 Y159.02 E18.76093
G1 X157.9 Y158.933 E18.77461
G1 X157.9 Y158.5 E18.79621
G1 X158.075 Y158.075 E18.81914
G1 X158.411 Y157.9 E18.83804
G1 X172.5 Y157.9 E19.54095
G1 X172.807 Y157.983 E19.55681
G1 X173.007 Y158.177 E19.57071
G1 X173.089 Y158.384 E19.58182
G1 X173.1 Y158.933 E19.60922
G1 X173.36 Y159.02 E19.62289
G1 X173.518 Y159.195 E19.63466
G1 X173.6 Y159.5 E19.65041
G1 X173.598 Y163.053 E19.82767
G1 X173.48 Y163.36 E19.84408
G1 X173.1 Y163.55 E19.86528
G1 X173.1 Y167.45 E20.05985
G1 X173.48 Y167.64 E20.08105
G1 X173.562 Y167.789 E20.08953
G1 X173.6 Y168 E20.10023
G1 X173.598 Y171.553 E20.27749
G1 X173.557 Y171.726 E20.28636
G1 X173.36 Y171.98 E20.30239
G1 X173.1 Y172.067 E20.31607
G1 X173.083 Y172.646 E20.34497
G1 X172.925 Y172.925 E20.36097
G1 X172.769 Y173.037 E20.37055
G0 F3600 X172.642 Y172.642
;TYPE:WALL-OUTER
G1 F1500 X172.549 Y172.695 E20.37589
G1 X158.441 Y172.7 E21.07974
G1 X158.339 Y172.62 E21.08621
G1 X158.302 Y172.535 E21.09083
G1 X158.3 Y171.7 E21.13249
G1 X158 Y171.7 E21.14746
G1 X157.88 Y171.66 E21.15377
G1 X157.802 Y171.535 E21.16112
G1 X157.8 Y168 E21.33748
G1 X157.88 Y167.84 E21.34641
G1 X158 Y167.8 E21.35272
G1 X158.3 Y167.8 E21.36768
G1 X158.3 Y163.2 E21.59718
G1 X158 Y163.2 E21.61215
G1 X157.88 Y163.16 E21.61846
G1 X157.802 Y163.035 E21.62581
G1 X157.8 Y159.5 E21.80217
G1 X157.88 Y159.34 E21.81109
G1 X158 Y159.3 E21.8174
G1 X158.3 Y159.3 E21.83237
G1 X158.3 Y158.5 E21.87228
G1 X158.358 Y158.358 E21.87994
G1 X158.465 Y158.302 E21.88596
G1 X172.5 Y158.3 E22.58617
G1 X172.603 Y158.327 E22.59148
G1 X172.697 Y158.461 E22.59965
G1 X172.7 Y159.3 E22.64151
G1 X173 Y159.3 E22.65647
G1 X173.12 Y159.34 E22.66278
G1 X173.2 Y159.5 E22.67171
G1 X173.2 Y163.018 E22.84722
G1 X173.16 Y163.12 E22.85269
G1 X173 Y163.2 E22.86161
G1 X172.7 Y163.2 E22.87658
G1 X172.7 Y167.8 E23.10608
G1 X173 Y167.8 E23.12104
G1 X173.16 Y167.88 E23.12997
G1 X173.2 Y168 E23.13628
G1 X173.2 Y171.558 E23.31379
G1 X173.12 Y171.66 E23.32025
G1 X173 Y171.7 E23.32657
G1 X172.7 Y171.7 E23.34153
G1 X172.695 Y172.549 E23.38389
G1 X172.642 Y172.642 E23.38923
G0 F3600 X173.4 Y172.642
G0 X176.049 Y173.197
G0 X177.231 Y173.4
G0 X177.231 Y173.037
;TYPE:WALL-INNER
G1 F1500 X177.075 Y172.925 E23.39881
G1 X176.917 Y172.646 E23.41481
G1 X176.9 Y172.067 E23.44371
G1 X176.64 Y171.98 E23.45738
G1 X176.443 Y171.726 E23.47342
G1 X176.402 Y171.553 E23.48229
G1 X176.4 Y168 E23.65955
G1 X176.438 Y167.789 E23.67025
G1 X176.52 Y167.64 E23.67873
G1 X176.9 Y167.45 E23.69993
G1 X176.9 Y163.55 E23.8945
G1 X176.52 Y163.36 E23.9157
G1 X176.402 Y163.053 E23.93211
G1 X176.4 Y159.5 E24.10937
G1 X176.482 Y159.195 E24.12512
G1 X176.64 Y159.02 E24.13688
G1 X176.9 Y158.933 E24.15056
G1 X176.911 Y158.384 E24.17796
G1 X176.994 Y158.177 E24.18909
G1 X177.194 Y157.983 E24.20299
G1 X177.418 Y157.9 E24.2149
G1 X191.5 Y157.9 E24.91746
G1 X191.925 Y158.075 E24.94039
G1 X192.1 Y158.5 E24.96332
G1 X192.1 Y158.933 E24.98492
G1 X192.36 Y159.02 E24.9986
G1 X192.6 Y159.5 E25.02537
G1 X192.6 Y163.091 E25.20453
G1 X192.36 Y163.48 E25.22733
G1 X192.1 Y163.567 E25.24101
G1 X192.1 Y167.433 E25.43389
G1 X192.36 Y167.52 E25.44757
G1 X192.6 Y168 E25.47434
G1 X192.6 Y171.591 E25.65349
G1 X192.36 Y171.98 E25.6763
G1 X192.1 Y172.067 E25.68998
G1 X192.092 Y172.604 E25.71677
G1 X191.981 Y172.861 E25.73074
G1 X191.732 Y173.054 E25.74646
G1 X191.5 Y173.1 E25.75825
G1 X177.447 Y173.098 E26.45936
G1 X177.231 Y173.037 E26.47056
G0 F3600 X177.358 Y172.642
;TYPE:WALL-OUTER
G1 F1500 X177.305 Y172.549 E26.4759
G1 X177.3 Y171.7 E26.51826
G1 X177 Y171.7 E26.53322
G1 X176.88 Y171.66 E26.53954
G1 X176.8 Y171.558 E26.546
G1 X176.8 Y168 E26.72351
G1 X176.84 Y167.88 E26.72982
G1 X177 Y167.8 E26.73875
G1 X177.3 Y167.8 E26.75371
G1 X177.3 Y163.2 E26.98321
G1 X177 Y163.2 E26.99818
G1 X176.84 Y163.12 E27.0071
G1 X176.8 Y163.018 E27.01257
G1 X176.8 Y159.5 E27.18808
G1 X176.88 Y159.34 E27.19701
G1 X177 Y159.3 E27.20332
G1 X177.3 Y159.3 E27.21828
G1 X177.303 Y158.461 E27.26014
G1 X177.331 Y158.392 E27.26386
G1 X177.465 Y158.302 E27.27191
G1 X191.5 Y158.3 E27.97212
G1 X191.642 Y158.358 E27.97977
G1 X191.7 Y158.5 E27.98742
G1 X191.7 Y159.3 E28.02734
G1 X192 Y159.3 E28.0423
G1 X192.12 Y159.34 E28.04861
G1 X192.2 Y159.5 E28.05754
G1 X192.198 Y163.035 E28.2339
G1 X192.12 Y163.16 E28.24125
G1 X192 Y163.2 E28.24756
G1 X191.7 Y163.2 E28.26253
G1 X191.7 Y167.8 E28.49202
G1 X192 Y167.8 E28.50699
G1 X192.12 Y167.84 E28.5133
G1 X192.2 Y168 E28.52223
G1 X192.198 Y171.535 E28.69859
G1 X192.12 Y171.66 E28.70594
G1 X192 Y171.7 E28.71225
G1 X191.7 Y171.7 E28.72722
G1 X191.698 Y172.535 E28.76887
G1 X191.661 Y172.621 E28.77355
G1 X191.559 Y172.7 E28.77998
G1 X177.482 Y172.7 E29.48229
G1 X177.358 Y172.642 E29.48912
G0 F3600 X176.6 Y172.642
G0 X176.172 Y177.672
G0 X176.172 Y191.328
G0 X176.672 Y192.328
G0 X177.193 Y192.017
;TYPE:WALL-INNER
G1 F1500 X176.993 Y191.823 E29.50302
G1 X176.911 Y191.616 E29.51413
G1 X176.9 Y191.067 E29.54152
G1 X176.64 Y190.98 E29.5552
G1 X176.482 Y190.805 E29.56696
G1 X176.402 Y190.553 E29.58015
G1 X176.4 Y187 E29.75741
G1 X176.438 Y186.789 E29.76811
G1 X176.52 Y186.64 E29.77659
G1 X176.9 Y186.45 E29.79779
G1 X176.9 Y182.55 E29.99236
G1 X176.52 Y182.36 E30.01356
G1 X176.402 Y182.053 E30.02997
G1 X176.4 Y178.5 E30.20723
G1 X176.443 Y178.273 E30.21875
G1 X176.64 Y178.02 E30.23475
G1 X176.9 Y177.933 E30.24843
G1 X176.917 Y177.354 E30.27733
G1 X177.075 Y177.075 E30.29332
G1 X177.231 Y176.963 E30.3029
G1 X177.447 Y176.902 E30.3141
G1 X191.5 Y176.9 E31.01521
G1 X191.732 Y176.945 E31.027
G1 X191.98 Y177.139 E31.04271
G1 X192.1 Y177.5 E31.06169
G1 X192.1 Y177.933 E31.08329
G1 X192.36 Y178.02 E31.09697
G1 X192.6 Y178.5 E31.12374
G1 X192.6 Y182.091 E31.3029
G1 X192.36 Y182.48 E31.3257
G1 X192.1 Y182.567 E31.33938
G1 X192.1 Y186.433 E31.53226
G1 X192.36 Y186.52 E31.54593
G1 X192.6 Y187 E31.57271
G1 X192.6 Y190.591 E31.75186
G1 X192.36 Y190.98 E31.77467
G1 X192.1 Y191.067 E31.78835
G1 X192.092 Y191.604 E31.81514
G1 X191.925 Y191.925 E31.83319
G1 X191.589 Y192.1 E31.85209
G1 X177.5 Y192.1 E32.555
G1 X177.193 Y192.017 E32.57086
G0 F3600 X177.397 Y191.673
;TYPE:WALL-OUTER
G1 F1500 X177.303 Y191.539 E32.57903
G1 X177.3 Y190.7 E32.62089
G1 X177 Y190.7 E32.63585
G1 X176.88 Y190.66 E32.64216
G1 X176.8 Y190.518 E32.6503
G1 X176.8 Y187 E32.82581
G1 X176.84 Y186.88 E32.83212
G1 X177 Y186.8 E32.84104
G1 X177.3 Y186.8 E32.85601
G1 X177.3 Y182.2 E33.08551
G1 X177 Y182.2 E33.10047
G1 X176.84 Y182.12 E33.1094
G1 X176.8 Y182.018 E33.11486
G1 X176.8 Y178.5 E33.29038
G1 X176.88 Y178.34 E33.2993
G1 X177 Y178.3 E33.30561
G1 X177.3 Y178.3 E33.32058
G1 X177.305 Y177.451 E33.36294
G1 X177.358 Y177.358 E33.36828
G1 X177.482 Y177.3 E33.37511
G1 X191.559 Y177.3 E34.07741
G1 X191.66 Y177.379 E34.08381
G1 X191.7 Y177.5 E34.09017
G1 X191.7 Y178.3 E34.13008
G1 X192 Y178.3 E34.14505
G1 X192.12 Y178.34 E34.15136
G1 X192.2 Y178.5 E34.16028
G1 X192.198 Y182.035 E34.33664
G1 X192.12 Y182.16 E34.34399
G1 X192 Y182.2 E34.35031
G1 X191.7 Y182.2 E34.36527
G1 X191.7 Y186.8 E34.59477
G1 X192 Y186.8 E34.60973
G1 X192.12 Y186.84 E34.61604
G1 X192.2 Y187 E34.62497
G1 X192.198 Y190.535 E34.80133
G1 X192.12 Y190.66 E34.80868
G1 X192 Y190.7 E34.81499
G1 X191.7 Y190.7 E34.82996
G1 X191.698 Y191.535 E34.87162
G1 X191.642 Y191.642 E34.87764
G1 X191.535 Y191.698 E34.88367
G1 X177.5 Y191.7 E35.58388
G1 X177.397 Y191.673 E35.58919
G0 F3600 X177.397 Y192.4
G0 X172.806 Y192.4
G0 X172.806 Y192.017
;TYPE:WALL-INNER
G1 F1500 X172.582 Y192.1 E35.60111
G1 X158.5 Y192.1 E36.30366
G1 X158.075 Y191.925 E36.32659
G1 X157.908 Y191.604 E36.34464
G1 X157.9 Y191.067 E36.37144
G1 X157.64 Y190.98 E36.38512
G1 X157.4 Y190.591 E36.40792
G1 X157.4 Y187 E36.58708
G1 X157.64 Y186.52 E36.61385
G1 X157.9 Y186.433 E36.62753
G1 X157.9 Y182.567 E36.8204
G1 X157.64 Y182.48 E36.83408
G1 X157.4 Y182.091 E36.85689
G1 X157.4 Y178.5 E37.03604
G1 X157.64 Y178.02 E37.06282
G1 X157.9 Y177.933 E37.07649
G1 X157.9 Y177.5 E37.0981
G1 X158.02 Y177.139 E37.11708
G1 X158.269 Y176.946 E37.13279
G1 X158.5 Y176.9 E37.14454
G1 X172.5 Y176.9 E37.84301
G1 X172.769 Y176.963 E37.85679
G1 X172.925 Y177.075 E37.86637
G1 X173.083 Y177.354 E37.88237
G1 X173.1 Y177.933 E37.91127
G1 X173.36 Y178.02 E37.92495
G1 X173.557 Y178.273 E37.94094
G1 X173.6 Y178.5 E37.95247
G1 X173.598 Y182.053 E38.12973
G1 X173.48 Y182.36 E38.14614
G1 X173.1 Y182.55 E38.16733
G1 X173.1 Y186.45 E38.36191
G1 X173.48 Y186.64 E38.3831
G1 X173.562 Y186.789 E38.39159
G1 X173.6 Y187 E38.40228
G1 X173.598 Y190.553 E38.57954
G1 X173.518 Y190.805 E38.59273
G1 X173.36 Y190.98 E38.6045
G1 X173.1 Y191.067 E38.61817
G1 X173.089 Y191.616 E38.64557
G1 X173.006 Y191.823 E38.6567
G1 X172.806 Y192.017 E38.6706
G0 F3600 X172.669 Y191.608
;TYPE:WALL-OUTER
G1 F1500 X172.535 Y191.698 E38.67865
G1 X158.5 Y191.7 E39.37886
G1 X158.358 Y191.642 E39.38651
G1 X158.302 Y191.535 E39.39254
G1 X158.3 Y190.7 E39.4342
G1 X158 Y190.7 E39.44916
G1 X157.88 Y190.66 E39.45547
G1 X157.802 Y190.535 E39.46282
G1 X157.8 Y187 E39.63919
G1 X157.88 Y186.84 E39.64811
G1 X158 Y186.8 E39.65442
G1 X158.3 Y186.8 E39.66939
G1 X158.3 Y182.2 E39.89888
G1 X158 Y182.2 E39.91385
G1 X157.88 Y182.16 E39.92016
G1 X157.802 Y182.035 E39.92751
G1 X157.8 Y178.5 E40.10387
G1 X157.88 Y178.34 E40.1128
G1 X158 Y178.3 E40.11911
G1 X158.3 Y178.3 E40.13408
G1 X158.3 Y177.5 E40.17399
G1 X158.34 Y177.379 E40.18035
G1 X158.442 Y177.3 E40.18678
G1 X172.549 Y177.305 E40.89058
G1 X172.642 Y177.358 E40.89592
G1 X172.695 Y177.451 E40.90127
G1 X172.7 Y178.3 E40.94362
G1 X173 Y178.3 E40.95859
G1 X173.12 Y178.34 E40.9649
G1 X173.2 Y178.442 E40.97137
G1 X173.2 Y182.018 E41.14978
G1 X173.16 Y182.12 E41.15524
G1 X173 Y182.2 E41.16417
G1 X172.7 Y182.2 E41.17913
G1 X172.7 Y186.8 E41.40863
G1 X173 Y186.8 E41.42359
G1 X173.16 Y186.88 E41.43252
G1 X173.2 Y187 E41.43883
G1 X173.2 Y190.518 E41.61434
G1 X173.12 Y190.66 E41.62248
G1 X173 Y190.7 E41.62879
G1 X172.7 Y190.7 E41.64375
G1 X172.697 Y191.539 E41.68561
G1 X172.669 Y191.608 E41.68933
G0 F3600 X173.4 Y191.608
G0 X156.87 Y193.13
G0 X156.6 Y193.4
;TYPE:WALL-INNER
G1 F1500 X193.4 Y193.4 E43.52529
G1 X193.4 Y156.6 E45.36125
G1 X156.6 Y156.6 E47.1972
G1 X156.6 Y193.4 E49.03316
G0 F3600 X156.2 Y193.8
;TYPE:WALL-OUTER
G1 F1500 X193.8 Y193.8 E50.90904
G1 X193.8 Y156.2 E52.78491
G1 X156.2 Y156.2 E54.66078
G1 X156.2 Y193.8 E56.53665
G0 F3600 X156.47 Y193.53
G0 X157.001 Y190.65
;TYPE:SKIN
G1 F1242.2 X157.001 Y188.83 E56.64629
G1 F1247.4 X157 Y187.01 E56.75548
G0 F3600 X157 Y186.948
G1 F1232 X157.329 Y186.282 E56.8006
G1 F1224.5 X157.495 Y186.152 E56.81349
G1 X157.495 Y182.847 E57.01547
G1 F1229.5 X157.37 Y182.788 E57.02389
G1 F1234.6 X157.033 Y182.237 E57.06304
G1 F1239.7 X157.001 Y182.15 E57.06863
G1 X157.002 Y183.164 E57.12984
G1 F1234.6 X157.003 Y184.178 E57.19131
G1 F1232 X157.004 Y185.192 E57.2529
G1 F1227 X157.006 Y186.206 E57.31475
G1 F1232 X157 Y186.948 E57.35982
G0 F3600 X157.001 Y182.15
G1 F1242.2 X157.001 Y180.33 E57.46946
G1 F1247.4 X157 Y178.51 E57.57865
G0 F3600 X157.001 Y171.65
G1 F1242.2 X157.001 Y169.83 E57.68829
G1 F1247.4 X157 Y168.01 E57.79748
G0 F3600 X157 Y167.948
G1 F1232 X157.329 Y167.282 E57.8426
G1 F1224.5 X157.495 Y167.152 E57.85548
G1 X157.495 Y163.847 E58.05747
G1 F1229.5 X157.37 Y163.788 E58.06588
G1 F1234.6 X157.033 Y163.237 E58.10503
G1 F1239.7 X157.001 Y163.15 E58.11063
G1 X157.002 Y164.164 E58.17184
G1 F1234.6 X157.003 Y165.178 E58.23331
G1 F1232 X157.004 Y166.192 E58.2949
G1 F1227 X157.006 Y167.206 E58.35674
